<?xml version="1.0" encoding="UTF-8"?>
<map version="1.10" tiledversion="1.12.2" orientation="orthogonal" renderorder="right-down" width="150" height="20" tilewidth="16" tileheight="16" infinite="0" nextlayerid="21" nextobjectid="28">
 <tileset firstgid="1" name="Tiles" tilewidth="16" tileheight="16" tilecount="625" columns="25">
  <image source="../../../../dump/Legacy-Fantasy - High Forest 2.3/Assets/Tiles.png" width="400" height="400"/>
 </tileset>
 <tileset firstgid="626" name="Buildings" tilewidth="16" tileheight="16" tilecount="625" columns="25">
  <image source="../../../../dump/Legacy-Fantasy - High Forest 2.3/Assets/Buildings.png" width="400" height="400"/>
 </tileset>
 <tileset firstgid="1251" name="Tree-Assets" tilewidth="16" tileheight="16" tilecount="525" columns="21">
  <image source="../../../../dump/Legacy-Fantasy - High Forest 2.3/Assets/Tree-Assets.png" width="336" height="400"/>
 </tileset>
 <tileset firstgid="1776" name="Dark-Tree" tilewidth="16" tileheight="16" tilecount="6300" columns="84">
  <image source="../../../../dump/Legacy-Fantasy - High Forest 2.3/Trees/Dark-Tree.png" width="1344" height="1200"/>
 </tileset>
 <tileset firstgid="8076" name="Green-Tree" tilewidth="16" tileheight="16" tilecount="6300" columns="84">
  <image source="../../../../dump/Legacy-Fantasy - High Forest 2.3/Trees/Green-Tree.png" width="1344" height="1200"/>
 </tileset>
 <tileset firstgid="14376" name="Yellow-Tree" tilewidth="16" tileheight="16" tilecount="6300" columns="84">
  <image source="../../../../dump/Legacy-Fantasy - High Forest 2.3/Trees/Yellow-Tree.png" width="1344" height="1200"/>
 </tileset>
 <tileset firstgid="20676" name="Red-Tree" tilewidth="16" tileheight="16" tilecount="6300" columns="84">
  <image source="../../../../dump/Legacy-Fantasy - High Forest 2.3/Trees/Red-Tree.png" width="1344" height="1200"/>
 </tileset>
 <tileset firstgid="26976" name="Background" tilewidth="16" tileheight="16" tilecount="896" columns="56">
  <image source="../../../../dump/Legacy-Fantasy - High Forest 2.3/Trees/Background.png" width="896" height="256"/>
 </tileset>
 <tileset firstgid="27872" name="Props-Rocks" tilewidth="16" tileheight="16" tilecount="378" columns="18">
  <image source="../../../../dump/Legacy-Fantasy - High Forest 2.3/Assets/Props-Rocks.png" width="288" height="336"/>
 </tileset>
 <tileset firstgid="28250" name="Interior-01" tilewidth="16" tileheight="16" tilecount="625" columns="25">
  <image source="../../../../dump/Legacy-Fantasy - High Forest 2.3/Assets/Interior-01.png" width="400" height="400"/>
 </tileset>
 <layer id="11" name="bhapp" width="150" height="20">
  <data encoding="csv">
0,0,0,0,0,0,0,0,0,0,0,0,0,0,0,0,0,0,0,0,0,0,0,0,0,0,0,0,0,0,0,0,0,0,0,0,0,0,0,0,0,0,0,0,0,0,0,0,0,0,0,0,0,0,0,0,0,0,0,0,0,0,0,0,0,0,0,0,0,0,0,0,0,0,0,0,0,0,0,0,0,0,0,0,0,0,0,0,0,0,0,0,0,0,0,0,0,0,0,0,0,0,0,0,0,0,0,0,0,0,0,0,0,0,0,0,0,0,0,0,0,0,0,0,0,0,0,0,0,0,0,0,0,0,0,0,0,0,0,0,0,0,0,0,0,0,0,0,0,0,
0,0,0,0,0,0,0,0,0,0,0,0,0,0,0,0,0,0,0,0,0,0,0,0,0,0,0,0,0,0,0,0,0,0,0,0,0,0,0,0,0,0,0,0,0,0,0,0,0,0,0,0,0,0,0,0,0,0,0,0,0,0,0,0,0,0,0,0,0,0,0,0,0,0,0,0,0,0,0,0,0,0,0,0,0,0,0,0,0,0,0,0,0,0,0,0,0,0,0,0,0,0,0,0,0,0,0,0,0,0,0,0,0,0,0,0,0,0,0,0,0,0,0,0,0,0,0,0,0,0,0,0,0,0,0,0,0,0,0,0,0,0,0,0,0,0,0,0,0,0,
0,0,0,0,0,0,0,0,0,0,0,0,0,0,0,0,0,0,0,0,0,0,0,0,0,0,0,0,0,0,0,0,0,0,0,0,0,0,0,0,0,0,0,0,0,0,0,0,0,0,0,0,0,0,0,0,0,0,0,0,0,0,0,0,0,0,0,0,0,0,0,0,0,0,0,0,0,0,0,0,0,0,0,0,0,0,0,0,0,0,0,0,0,0,0,0,0,0,0,0,0,0,0,0,0,0,0,0,0,0,0,0,0,0,0,0,0,0,0,0,0,0,0,0,0,0,0,0,0,0,0,0,0,0,0,0,0,0,0,0,0,0,0,0,0,0,0,0,0,0,
0,0,0,0,0,0,0,0,0,0,0,0,0,0,0,0,0,0,0,0,0,0,0,0,0,0,0,0,0,0,0,0,0,0,0,0,0,0,0,0,0,0,0,0,0,0,0,0,0,0,0,0,0,0,0,0,0,0,0,0,0,0,0,0,0,0,0,0,0,0,0,0,0,0,0,0,0,0,0,0,0,0,0,0,0,0,0,0,0,0,0,0,0,0,0,0,0,0,0,0,0,0,0,0,0,0,0,0,0,0,0,0,0,0,0,0,0,0,0,0,0,0,0,0,0,0,0,0,0,0,0,0,0,0,0,0,0,0,0,0,0,0,0,0,0,0,0,0,0,0,
0,0,0,0,0,0,0,0,0,0,0,0,0,0,0,0,0,0,0,0,0,0,0,0,0,0,0,0,0,0,0,0,0,0,0,0,0,0,0,0,0,0,0,0,0,0,0,0,0,0,0,0,0,0,0,0,0,0,0,0,0,0,0,0,0,26976,26977,26978,26979,26980,26981,26983,26984,26985,26986,26987,26988,26990,26991,26992,26993,26976,26977,26978,26979,26980,26981,26983,26984,26985,26986,26987,26988,26990,26991,26992,26976,26977,26978,26979,26980,26981,26983,26984,26985,26986,26987,26988,26990,26991,26992,26993,26994,26995,26996,26997,0,0,0,0,0,0,0,0,0,0,0,0,0,0,0,0,0,0,0,0,0,0,0,0,0,0,0,0,0,0,0,0,0,0,
0,0,0,0,0,0,0,0,0,0,0,0,0,0,0,0,0,0,0,0,0,0,0,0,0,0,0,0,0,0,0,0,0,0,0,0,0,0,0,0,0,0,0,0,0,0,0,0,0,0,0,0,0,0,0,0,0,0,0,0,0,0,0,0,0,27032,27033,27034,27035,27036,27037,27039,27040,27041,27042,27043,27044,27046,27047,27048,27049,27032,27033,27034,27035,27036,27037,27039,27040,27041,27042,27043,27044,27046,27047,27048,27032,27033,27034,27035,27036,27037,27039,27040,27041,27042,27043,27044,27046,27047,27048,27049,26976,26977,26978,26979,26980,26981,26983,26984,26985,26986,26987,26988,26990,26991,26992,26993,26994,26995,26996,26997,0,0,0,0,0,0,0,0,0,0,0,0,0,0,0,0,0,0,
0,0,0,0,0,0,0,0,0,0,0,0,0,0,0,0,0,0,0,0,0,0,0,0,0,0,0,0,0,0,0,0,0,0,0,0,0,0,0,0,0,0,0,0,0,0,0,0,0,0,0,0,0,0,0,0,0,0,0,0,0,0,0,0,0,27088,27089,27090,27091,27092,27093,27095,27096,27097,27098,27099,27100,27102,27103,27104,27105,27088,27089,27090,27091,27092,27093,27095,27096,27097,27098,27099,27100,27102,27103,27104,27088,27089,27090,27091,27092,27093,27095,27096,27097,27098,27099,27100,27102,27103,27104,27105,27032,27033,27034,27035,27036,27037,27039,27040,27041,27042,27043,27044,27046,27047,27048,27049,27050,27051,27052,27053,0,0,0,0,0,0,0,0,0,0,0,0,0,0,0,0,0,0,
0,0,0,0,0,0,0,0,0,0,0,0,0,0,0,0,0,0,0,0,0,0,0,0,0,0,0,0,0,0,0,0,0,0,0,0,0,0,0,0,0,0,0,0,0,0,0,0,0,0,0,0,0,0,0,0,0,0,0,0,0,0,0,0,0,27144,27145,27146,27147,27148,27149,27151,27152,27153,27154,27155,27156,27158,27159,27160,27161,27144,27145,27146,27147,27148,27149,27151,27152,27153,27154,27155,27156,27158,27159,27160,27144,27145,27146,27147,27148,27149,27151,27152,27153,27154,27155,27156,27158,27159,27160,27161,27088,27089,27090,27091,27092,27093,27095,27096,27097,27098,27099,27100,27102,27103,27104,27105,27106,27107,27108,27109,0,0,0,0,0,0,0,0,0,0,0,0,0,0,0,0,0,0,
0,0,0,0,0,0,0,0,0,0,0,0,0,0,0,0,0,0,0,0,0,0,0,0,0,0,0,0,0,0,0,0,0,0,0,0,0,0,0,0,0,0,0,0,0,0,0,0,0,0,0,0,0,0,0,0,0,0,0,0,0,0,0,0,0,27200,27201,27202,27203,27204,27205,27207,27208,27209,27210,27211,27212,27214,27215,27216,27217,27200,27201,27202,27203,27204,27205,27207,27208,27209,27210,27211,27212,27214,27215,27216,27200,27201,27202,27203,27204,27205,27207,27208,27209,27210,27211,27212,27214,27215,27216,27217,27144,27145,27146,27147,27148,27149,27151,27152,27153,27154,27155,27156,27158,27159,27160,27161,27162,27163,27164,27165,0,0,0,0,0,0,0,0,0,0,0,0,0,0,0,0,0,0,
0,0,0,0,0,0,0,0,0,0,0,0,0,0,0,0,0,0,0,0,0,0,0,0,0,0,0,0,0,0,0,0,0,0,0,0,0,0,0,0,0,0,0,0,0,0,0,0,0,0,0,0,0,0,0,0,0,0,0,0,0,0,0,0,0,27256,27257,27258,27259,27260,27261,27263,27264,27265,27266,27267,27268,27270,27271,27272,27273,27256,27257,27258,27259,27260,27261,27263,27264,27265,27266,27267,27268,27270,27271,27272,27256,27257,27258,27259,27260,27261,27263,27264,27265,27266,27267,27268,27270,27271,27272,27273,27200,27201,27202,27203,27204,27205,27207,27208,27209,27210,27211,27212,27214,27215,27216,27217,27218,27219,27220,27221,0,0,0,0,0,0,0,0,0,0,0,0,0,0,0,0,0,0,
0,0,0,0,0,0,0,0,0,0,0,0,0,0,0,0,0,0,0,0,0,0,0,0,0,0,0,0,0,0,0,0,0,0,0,0,0,0,0,0,0,0,0,0,0,0,0,0,0,0,0,0,0,0,0,0,0,0,0,0,0,0,0,0,0,27312,27313,27314,27315,27316,27317,27319,27320,27321,27322,27323,27324,27326,27327,27328,27329,27312,27313,27314,27315,27316,27317,27319,27320,27321,27322,27323,27324,27326,27327,27328,27312,27313,27314,27315,27316,27317,27319,27320,27321,27322,27323,27324,27326,27327,27328,27329,27256,27257,27258,27259,27260,27261,27263,27264,27265,27266,27267,27268,27270,27271,27272,27273,27274,27275,27276,27277,0,0,0,0,0,0,0,0,0,0,0,0,0,0,0,0,0,0,
0,0,0,0,0,0,0,0,0,0,0,0,0,0,0,0,0,0,0,0,0,0,0,0,0,0,0,0,0,0,0,0,0,0,0,0,0,0,0,0,0,0,0,0,0,0,0,0,0,0,0,0,0,0,0,0,0,0,0,0,0,0,0,0,0,27368,27369,27370,27371,27372,27373,27375,27376,27377,27378,27379,27380,27382,27383,27384,27385,27368,27369,27370,27371,27372,27373,27375,27376,27377,27378,27379,27380,27382,27383,27384,27368,27369,27370,27371,27372,27373,27375,27376,27377,27378,27379,27380,27382,27383,27384,27385,27312,27313,27314,27315,27316,27317,27319,27320,27321,27322,27323,27324,27326,27327,27328,27329,27330,27331,27332,27333,0,0,0,0,0,0,0,0,0,0,0,0,0,0,0,0,0,0,
0,0,0,0,0,0,0,0,0,0,0,0,0,0,0,0,0,0,0,0,0,0,0,0,0,0,0,0,0,0,0,0,0,0,0,0,0,0,0,0,0,0,0,0,0,0,0,0,0,0,0,0,0,0,0,0,0,0,0,0,0,0,0,0,0,27424,27425,27426,27427,27428,27429,27431,27432,27433,27434,27435,27436,27438,27439,27440,27441,27424,27425,27426,27427,27428,27429,27431,27432,27433,27434,27435,27436,27438,27439,27440,27424,27425,27426,27427,27428,27429,27431,27432,27433,27434,27435,27436,27438,27439,27440,27441,27368,27369,27370,27371,27372,27373,27375,27376,27377,27378,27379,27380,27382,27383,27384,27385,27386,27387,27388,27389,0,0,0,0,0,0,0,0,0,0,0,0,0,0,0,0,0,0,
0,0,0,0,0,0,0,0,0,0,0,0,0,0,0,0,0,0,0,0,0,0,0,0,0,0,0,0,0,0,0,0,0,0,0,0,0,0,0,0,0,0,0,0,0,0,0,0,0,0,0,0,0,0,0,0,0,0,0,0,0,0,0,0,0,27480,27481,27482,27483,27484,27485,27487,27488,27489,27490,27491,27492,27494,27495,27496,27497,27480,27481,27482,27483,27484,27485,27487,27488,27489,27490,27491,27492,27494,27495,27496,27480,27481,27482,27483,27484,27485,27487,27488,27489,27490,27491,27492,27494,27495,27496,27497,27424,27425,27426,27427,27428,27429,27431,27432,27433,27434,27435,27436,27438,27439,27440,27441,27442,27443,27444,27445,0,0,0,0,0,0,0,0,0,0,0,0,0,0,0,0,0,0,
0,0,0,0,0,0,0,0,0,0,0,0,0,0,0,0,0,0,0,0,0,0,0,0,0,0,0,0,0,0,0,0,0,0,0,0,0,0,0,0,0,0,0,0,0,0,0,0,0,0,0,0,0,0,0,0,0,0,0,0,0,0,0,0,0,27536,27537,27538,27539,27540,27541,27543,27544,27545,27546,27547,27548,27550,27551,27552,27553,27536,27537,27538,27539,27540,27541,27543,27544,27545,27546,27547,27548,27550,27551,27552,27536,27537,27538,27539,27540,27541,27543,27544,27545,27546,27547,27548,27550,27551,27552,27553,27480,27481,27482,27483,27484,27485,27487,27488,27489,27490,27491,27492,27494,27495,27496,27497,27498,27499,27500,27501,0,0,0,0,0,0,0,0,0,0,0,0,0,0,0,0,0,0,
0,0,0,0,0,0,0,0,0,0,0,0,0,0,0,0,0,0,0,0,0,0,0,0,0,0,0,0,0,0,0,0,0,0,0,0,0,0,0,0,0,0,0,0,0,0,0,0,0,0,0,0,0,0,0,0,0,0,0,0,0,0,0,0,0,27592,27593,27594,27595,27596,27597,27599,27600,27601,27602,27603,27604,27606,27607,27608,27609,27592,27593,27594,27595,27596,27597,27599,27600,27601,27602,27603,27604,27606,27607,27608,27592,27593,27594,27595,27596,27597,27599,27600,27601,27602,27603,27604,27606,27607,27608,27609,27536,27537,27538,27539,27540,27541,27543,27544,27545,27546,27547,27548,27550,27551,27552,27553,27554,27555,27556,27557,0,0,0,0,0,0,0,0,0,0,0,0,0,0,0,0,0,0,
0,0,0,0,0,0,0,0,0,0,0,0,0,0,0,0,0,0,0,0,0,0,0,0,0,0,0,0,0,0,0,0,0,0,0,0,0,0,0,0,0,0,0,0,0,0,0,0,0,0,0,0,0,0,0,0,0,0,0,0,0,0,0,0,0,27648,27649,27650,27651,27652,27653,27655,27656,27657,27658,27659,27660,27662,27663,27664,27665,27648,27649,27650,27651,27652,27653,27655,27656,27657,27658,27659,27660,27662,27663,27664,27648,27649,27650,27651,27652,27653,27655,27656,27657,27658,27659,27660,27662,27663,27664,27665,27592,27593,27594,27595,27596,27597,27599,27600,27601,27602,27603,27604,27606,27607,27608,27609,27610,27611,27612,27613,0,0,0,0,0,0,0,0,0,0,0,0,0,0,0,0,0,0,
0,0,0,0,0,0,0,0,0,0,0,0,0,0,0,0,0,0,0,0,0,0,0,0,0,0,0,0,0,0,0,0,0,0,0,0,0,0,0,0,0,0,0,0,0,0,0,0,0,0,0,0,0,0,0,0,0,0,0,0,0,0,0,0,0,27704,27705,27706,27707,27708,27709,27711,27712,27713,27714,27715,27716,27718,27719,27720,27721,27704,27705,27706,27707,27708,27709,27711,27712,27713,27714,27715,27716,27718,27719,27720,27704,27705,27706,27707,27708,27709,27711,27712,27713,27714,27715,27716,27718,27719,27720,27721,27648,27649,27650,27651,27652,27653,27655,27656,27657,27658,27659,27660,27662,27663,27664,27665,27666,27667,27668,27669,0,0,0,0,0,0,0,0,0,0,0,0,0,0,0,0,0,0,
0,0,0,0,0,0,0,0,0,0,0,0,0,0,0,0,0,0,0,0,0,0,0,0,0,0,0,0,0,0,0,0,0,0,0,0,0,0,0,0,0,0,0,0,0,0,0,0,0,0,0,0,0,0,0,0,0,0,0,0,0,0,0,0,0,27760,27761,27762,27763,27764,27765,27767,27768,27769,27770,27771,27772,27774,27775,27776,27777,27760,27761,27762,27763,27764,27765,27767,27768,27769,27770,27771,27772,27774,27775,27776,27760,27761,27762,27763,27764,27765,27767,27768,27769,27770,27771,27772,27774,27775,27776,27777,27704,27705,27706,27707,27708,27709,27711,27712,27713,27714,27715,27716,27718,27719,27720,27721,27722,27723,27724,27725,0,0,0,0,0,0,0,0,0,0,0,0,0,0,0,0,0,0,
0,0,0,0,0,0,0,0,0,0,0,0,0,0,0,0,0,0,0,0,0,0,0,0,0,0,0,0,0,0,0,0,0,0,0,0,0,0,0,0,0,0,0,0,0,0,0,0,0,0,0,0,0,0,0,0,0,0,0,0,0,0,0,0,0,27816,27817,27818,27819,27820,27821,27823,27824,27825,27826,27827,27828,27830,27831,27832,27833,27816,27817,27818,27819,27820,27821,27823,27824,27825,27826,27827,27828,27830,27831,27832,27816,27817,27818,27819,27820,27821,27823,27824,27825,27826,27827,27828,27830,27831,27832,27833,27760,27761,27762,27763,27764,27765,27767,27768,27769,27770,27771,27772,27774,27775,27776,27777,27778,27779,27780,27781,0,0,0,0,0,0,0,0,0,0,0,0,0,0,0,0,0,0
</data>
 </layer>
 <layer id="10" name="tree3" width="150" height="20">
  <data encoding="csv">
0,0,0,0,0,0,0,0,0,0,0,0,0,0,0,0,0,0,0,0,0,0,0,0,0,0,0,0,0,0,0,0,0,0,0,0,0,0,0,0,0,0,0,0,0,0,0,0,0,0,0,0,0,0,0,0,0,0,0,0,0,0,0,0,0,0,0,0,0,0,0,0,0,0,0,0,0,0,0,0,0,0,0,0,0,0,0,0,0,0,0,0,0,0,0,0,0,0,0,0,0,0,0,0,0,0,0,0,0,0,0,0,0,0,0,0,0,0,0,0,0,0,0,0,0,0,0,0,0,0,0,0,0,0,0,0,0,26976,26977,26978,26979,26980,26981,26990,26991,26992,26993,26994,26995,26996,
0,0,0,0,0,0,0,0,0,0,0,0,0,0,0,0,0,0,0,0,0,0,0,0,0,0,0,0,0,0,0,0,0,0,0,0,0,0,0,0,0,0,0,0,0,0,0,0,0,0,0,0,0,0,0,0,0,0,0,0,0,0,0,0,0,0,0,0,0,0,0,0,0,0,0,0,0,0,0,0,0,0,0,0,0,0,0,0,0,0,0,0,0,0,0,0,0,0,0,0,0,0,0,0,0,0,0,0,0,0,0,0,0,0,0,0,0,0,0,0,0,0,0,0,0,0,0,0,0,0,0,0,0,0,0,0,0,27032,27033,27034,27035,27036,27037,27046,27047,27048,27049,27050,27051,27052,
0,0,0,0,0,0,0,0,0,0,0,0,0,0,0,0,0,0,0,0,0,0,0,0,0,0,0,0,0,0,0,0,0,0,0,0,0,0,0,0,0,0,0,0,0,0,0,0,0,0,0,0,0,0,0,0,0,0,0,0,0,0,0,0,0,0,0,0,0,0,0,0,0,0,0,0,0,0,0,0,0,0,0,0,0,0,0,0,0,0,0,0,0,0,0,0,0,0,0,0,0,0,0,0,0,0,0,0,0,0,0,0,0,0,0,0,0,0,0,0,0,0,0,0,0,0,0,0,0,0,0,0,0,0,0,0,0,27088,27089,27090,27091,27092,27093,27102,27103,27104,27105,27106,27107,27108,
0,0,0,0,0,0,0,0,0,0,0,0,0,0,0,0,0,0,0,0,0,0,0,0,0,0,0,26976,26977,26978,26979,26980,26981,26983,26984,26985,26986,26987,26988,0,0,0,0,0,0,0,0,0,0,0,0,0,0,0,0,0,0,0,0,0,0,0,0,0,0,0,0,0,0,0,0,0,0,0,0,0,0,0,0,0,0,0,0,0,0,0,0,0,0,0,0,0,0,0,0,0,0,0,0,0,0,0,0,0,0,0,0,0,0,0,0,0,0,0,0,0,0,0,0,0,0,0,0,0,0,0,0,0,0,0,0,0,0,0,0,0,0,27144,27145,27146,27147,27148,27149,27158,27159,27160,27161,27162,27163,27164,
0,0,0,0,0,0,0,0,0,0,0,0,0,0,0,0,0,0,0,0,0,0,0,0,0,0,0,27032,27033,27034,27035,27036,27037,27039,27040,27041,27042,27043,27044,26984,26985,26986,26987,26988,0,0,0,0,0,0,0,0,0,0,0,0,0,0,0,0,0,0,0,0,0,0,0,0,0,0,0,0,0,0,0,0,0,0,0,0,26976,26977,26978,26979,26980,26981,26983,26984,26985,26986,26987,26988,26990,26991,26992,26993,26994,26995,26996,26997,0,0,0,0,0,0,0,0,0,0,0,0,0,0,0,0,26976,26977,26978,26979,26980,26981,26983,26984,26985,26986,26987,26988,26990,26991,26992,26993,26994,26995,26996,26997,0,27200,27201,27202,27203,27204,27205,27214,27215,27216,27217,27218,27219,27220,
27076,27077,27078,27079,27080,27081,27076,27077,27078,27079,27080,27081,27076,27077,27078,27079,27080,27081,27076,27077,27078,27079,27080,27081,0,0,0,27088,27089,27090,27091,27092,27093,27095,27096,27097,27098,27099,27100,27040,27041,27042,27043,27044,27077,27078,27079,27080,27081,27076,27077,27078,27079,27080,27081,27076,27077,27078,27079,27080,27081,0,0,0,0,0,0,0,0,0,0,0,0,0,0,0,0,0,0,0,27032,27033,27034,27035,27036,27037,27039,27040,27041,27042,27043,27044,27046,27047,27048,27049,27050,27051,27052,27053,0,0,0,0,0,0,0,0,0,0,0,0,0,0,0,0,27032,27033,27034,27035,27036,27037,27039,27040,27041,27042,27043,27044,27046,27047,27048,27049,27050,27051,27052,27053,0,27256,27257,27258,27259,27260,27261,27270,27271,27272,27273,27274,27275,27276,
27132,27133,27134,27135,27136,27137,27132,27133,27134,27135,27136,27137,27132,27133,27134,27135,27136,27137,27132,27133,27134,27135,27136,27137,0,0,0,27144,27145,27146,27147,27148,27149,27151,27152,27153,27154,27155,27156,27096,27097,27098,27099,27100,27133,27134,27135,27136,27137,27132,27133,27134,27135,27136,27137,27132,27133,27134,27135,27136,27137,0,0,0,0,0,0,0,0,0,0,0,0,0,0,0,0,0,0,0,27088,27089,27090,27091,27092,27093,27095,27096,27097,27098,27099,27100,27102,27103,27104,27105,27106,27107,27108,27109,0,0,0,0,0,0,0,0,0,0,0,0,0,0,0,0,27088,27089,27090,27091,27092,27093,27095,27096,27097,27098,27099,27100,27102,27103,27104,27105,27106,27107,27108,27109,0,27312,27313,27314,27315,27316,27317,27326,27327,27328,27329,27330,27331,27332,
27188,27189,27190,27191,27192,27193,27188,27189,27190,27191,27192,27193,27188,27189,27190,27191,27192,27193,27188,27189,27190,27191,27192,27193,0,0,0,27200,27201,27202,27203,27204,27205,27207,27208,27209,27210,27211,27212,27152,27153,27154,27155,27156,27189,27190,27191,27192,27193,27188,27189,27190,27191,27192,27193,27188,27189,27190,27191,27192,27193,0,0,0,0,0,0,0,0,0,0,0,0,0,0,0,0,0,0,0,27144,27145,27146,27147,27148,27149,27151,27152,27153,27154,27155,27156,27158,27159,27160,27161,27162,27163,27164,27165,0,0,0,0,0,0,0,0,0,0,0,0,0,0,0,0,27144,27145,27146,27147,27148,27149,27151,27152,27153,27154,27155,27156,27158,27159,27160,27161,27162,27163,27164,27165,0,27368,27369,27370,27371,27372,27373,27382,27383,27384,27385,27386,27387,27388,
27244,27245,27246,27247,27248,27249,27244,27245,27246,27247,27248,27249,27244,27245,27246,27247,27248,27249,27244,27245,27246,27247,27248,27249,0,0,0,27256,27257,27258,27259,27260,27261,27263,27264,27265,27266,27267,27268,27208,27209,27210,27211,27212,27245,27246,27247,27248,27249,27244,27245,27246,27247,27248,27249,27244,27245,27246,27247,27248,27249,0,0,0,0,0,0,0,0,0,0,0,0,0,0,0,0,0,0,0,27200,27201,27202,27203,27204,27205,27207,27208,27209,27210,27211,27212,27214,27215,27216,27217,27218,27219,27220,27221,0,0,0,0,0,0,0,0,0,0,0,0,0,0,0,0,27200,27201,27202,27203,27204,27205,27207,27208,27209,27210,27211,27212,27214,27215,27216,27217,27218,27219,27220,27221,0,27424,27425,27426,27427,27428,27429,27438,27439,27440,27441,27442,27443,27444,
27300,27301,27302,27303,27304,27305,27300,27301,27302,27303,27304,27305,27300,27301,27302,27303,27304,27305,27300,27301,27302,27303,27304,27305,0,0,0,27312,27313,27314,27315,27316,27317,27319,27320,27321,27322,27323,27324,27264,27265,27266,27267,27268,27301,27302,27303,27304,27305,27300,27301,27302,27303,27304,27305,27300,27301,27302,27303,27304,27305,0,0,0,0,0,0,0,0,0,0,0,0,0,0,0,0,0,0,0,27256,27257,27258,27259,27260,27261,27263,27264,27265,27266,27267,27268,27270,27271,27272,27273,27274,27275,27276,27277,0,0,0,0,0,0,0,0,0,0,0,0,0,0,0,0,27256,27257,27258,27259,27260,27261,27263,27264,27265,27266,27267,27268,27270,27271,27272,27273,27274,27275,27276,27277,0,27480,27481,27482,27483,27484,27485,27494,27495,27496,27497,27498,27499,27500,
27356,27357,27358,27359,27360,27361,27356,27357,27358,27359,27360,27361,27356,27357,27358,27359,27360,27361,27356,27357,27358,27359,27360,27361,0,0,0,27368,27369,27370,27371,27372,27373,27375,27376,27377,27378,27379,27380,27320,27321,27322,27323,27324,27357,27358,27359,27360,27361,27356,27357,27358,27359,27360,27361,27356,27357,27358,27359,27360,27361,0,0,0,0,0,0,0,0,0,0,0,0,0,0,0,0,0,0,0,27312,27313,27314,27315,27316,27317,27319,27320,27321,27322,27323,27324,27326,27327,27328,27329,27330,27331,27332,27333,0,0,0,0,0,0,0,0,0,0,0,0,0,0,0,0,27312,27313,27314,27315,27316,27317,27319,27320,27321,27322,27323,27324,27326,27327,27328,27329,27330,27331,27332,27333,0,27536,27537,27538,27539,27540,27541,27550,27551,27552,27553,27554,27555,27556,
27412,27413,27414,27415,27416,27417,27412,27413,27414,27415,27416,27417,27412,27413,27414,27415,27416,27417,27412,27413,27414,27415,27416,27417,0,0,0,27424,27425,27426,27427,27428,27429,27431,27432,27433,27434,27435,27436,27376,27377,27378,27379,27380,27413,27414,27415,27416,27417,27412,27413,27414,27415,27416,27417,27412,27413,27414,27415,27416,27417,0,0,0,0,0,0,0,0,0,0,0,0,0,0,0,0,0,0,0,27368,27369,27370,27371,27372,27373,27375,27376,27377,27378,27379,27380,27382,27383,27384,27385,27386,27387,27388,27389,0,0,0,0,0,0,0,0,0,0,0,0,0,0,0,0,27368,27369,27370,27371,27372,27373,27375,27376,27377,27378,27379,27380,27382,27383,27384,27385,27386,27387,27388,27389,0,27592,27593,27594,27595,27596,27597,27606,27607,27608,27609,27610,27611,27612,
27468,27469,27470,27471,27472,27473,27468,27469,27470,27471,27472,27473,27468,27469,27470,27471,27472,27473,27468,27469,27470,27471,27472,27473,0,0,0,27480,27481,27482,27483,27484,27485,27487,27488,27489,27490,27491,27492,27432,27433,27434,27435,27436,27469,27470,27471,27472,27473,27468,27469,27470,27471,27472,27473,27468,27469,27470,27471,27472,27473,0,0,0,0,0,0,0,0,0,0,0,0,0,0,0,0,0,0,0,27424,27425,27426,27427,27428,27429,27431,27432,27433,27434,27435,27436,27438,27439,27440,27441,27442,27443,27444,27445,0,0,0,0,0,0,0,0,0,0,0,0,0,0,0,0,27424,27425,27426,27427,27428,27429,27431,27432,27433,27434,27435,27436,27438,27439,27440,27441,27442,27443,27444,27445,0,27648,27649,27650,27651,27652,27653,27662,27663,27664,27665,27666,27667,27668,
27524,27525,27526,27527,27528,27529,27524,27525,27526,27527,27528,27529,27524,27525,27526,27527,27528,27529,27524,27525,27526,27527,27528,27529,0,0,0,27536,27537,27538,27539,27540,27541,27543,27544,27545,27546,27547,27548,27488,27489,27490,27491,27492,27525,27526,27527,27528,27529,27524,27525,27526,27527,27528,27529,27524,27525,27526,27527,27528,27529,0,0,0,0,0,0,0,0,0,0,0,0,0,0,0,0,0,0,0,27480,27481,27482,27483,27484,27485,27487,27488,27489,27490,27491,27492,27494,27495,27496,27497,27498,27499,27500,27501,0,0,0,0,0,0,0,0,0,0,0,0,0,0,0,0,27480,27481,27482,27483,27484,27485,27487,27488,27489,27490,27491,27492,27494,27495,27496,27497,27498,27499,27500,27501,0,27704,27705,27706,27707,27708,27709,27718,27719,27720,27721,27722,27723,27724,
27580,27581,27582,27583,27584,27585,27580,27581,27582,27583,27584,27585,27580,27581,27582,27583,27584,27585,27580,27581,27582,27583,27584,27585,0,0,0,27592,27593,27594,27595,27596,27597,27599,27600,27601,27602,27603,27604,27544,27545,27546,27547,27548,27581,27582,27583,27584,27585,27580,27581,27582,27583,27584,27585,27580,27581,27582,27583,27584,27585,0,0,0,0,0,0,0,0,0,0,0,0,0,0,0,0,0,0,0,27536,27537,27538,27539,27540,27541,27543,27544,27545,27546,27547,27548,27550,27551,27552,27553,27554,27555,27556,27557,0,0,0,0,0,0,0,0,0,0,0,0,0,0,0,0,27536,27537,27538,27539,27540,27541,27543,27544,27545,27546,27547,27548,27550,27551,27552,27553,27554,27555,27556,27557,0,27760,27761,27762,27763,27764,27765,27774,27775,27776,27777,27778,27779,27780,
27636,27637,27638,27639,27640,27641,27636,27637,27638,27639,27640,27641,27636,27637,27638,27639,27640,27641,27636,27637,27638,27639,27640,27641,0,0,0,27648,27649,27650,27651,27652,27653,27655,27656,27657,27658,27659,27660,27600,27601,27602,27603,27604,27637,27638,27639,27640,27641,27636,27637,27638,27639,27640,27641,27636,27637,27638,27639,27640,27641,0,0,0,0,0,0,0,0,0,0,0,0,0,0,0,0,0,0,0,27592,27593,27594,27595,27596,27597,27599,27600,27601,27602,27603,27604,27606,27607,27608,27609,27610,27611,27612,27613,0,0,0,0,0,0,0,0,0,0,0,0,0,0,0,0,27592,27593,27594,27595,27596,27597,27599,27600,27601,27602,27603,27604,27606,27607,27608,27609,27610,27611,27612,27613,0,27816,27817,27818,27819,27820,27821,27830,27831,27832,27833,27834,27835,27836,
27692,27693,27694,27695,27696,27697,27692,27693,27694,27695,27696,27697,27692,27693,27694,27695,27696,27697,27692,27693,27694,27695,27696,27697,0,27692,27693,27704,27705,27706,27707,27708,27709,27711,27712,27713,27714,27715,27716,27656,27657,27658,27659,27660,27693,27694,27695,27696,27697,27692,27693,27694,27695,27696,27697,27692,27693,27694,27695,27696,27697,0,27692,27693,27694,27695,27696,0,0,0,0,0,0,0,0,0,0,0,0,0,27648,27649,27650,27651,27652,27653,27655,27656,27657,27658,27659,27660,27662,27663,27664,27665,27666,27667,27668,27669,0,0,0,0,0,0,0,0,0,0,0,0,0,0,0,0,27648,27649,27650,27651,27652,27653,27655,27656,27657,27658,27659,27660,27662,27663,27664,27665,27666,27667,27668,27669,0,0,0,0,0,0,0,0,0,0,0,0,0,0,
27748,27749,27750,27751,27752,27753,27748,27749,27750,27751,27752,27753,27748,27749,27750,27751,27752,27753,27748,27749,27750,27751,27752,27753,0,27748,27749,27760,27761,27762,27763,27764,27765,27767,27768,27769,27770,27771,27772,27712,27713,27714,27715,27716,27749,27750,27751,27752,27753,27748,27749,27750,27751,27752,27753,27748,27749,27750,27751,27752,27753,0,27748,27749,27750,27751,27752,0,0,0,0,0,0,0,0,0,0,0,0,0,27704,27705,27706,27707,27708,27709,27711,27712,27713,27714,27715,27716,27718,27719,27720,27721,27722,27723,27724,27725,0,0,0,0,0,0,0,0,0,0,0,0,0,0,0,0,27704,27705,27706,27707,27708,27709,27711,27712,27713,27714,27715,27716,27718,27719,27720,27721,27722,27723,27724,27725,0,0,0,0,0,0,0,0,0,0,0,0,0,0,
27804,27805,27806,27807,27808,27809,27804,27805,27806,27807,27808,27809,27804,27805,27806,27807,27808,27809,27804,27805,27806,27807,27808,27809,0,27804,27805,27816,27817,27818,27819,27820,27821,27823,27824,27825,27826,27827,27828,27768,27769,27770,27771,27772,27805,27806,27807,27808,27809,27804,27805,27806,27807,27808,27809,27804,27805,27806,27807,27808,27809,0,27804,27805,27806,27807,27808,0,0,0,0,0,0,0,0,0,0,0,0,0,27760,27761,27762,27763,27764,27765,27767,27768,27769,27770,27771,27772,27774,27775,27776,27777,27778,27779,27780,27781,0,0,0,0,0,0,0,0,0,0,0,0,0,0,0,0,27760,27761,27762,27763,27764,27765,27767,27768,27769,27770,27771,27772,27774,27775,27776,27777,27778,27779,27780,27781,0,0,0,0,0,0,0,0,0,0,0,0,0,0,
27860,27861,27862,27863,27864,27865,27860,27861,27862,27863,27864,27865,27860,27861,27862,27863,27864,27865,27860,27861,27862,27863,27864,27865,0,27816,27817,27818,27819,27820,27821,27820,27821,27817,27818,27819,27820,27821,27823,27824,27825,27826,27827,27828,27861,27862,27863,27864,27865,27860,27861,27862,27863,27864,27865,27860,27861,27862,27863,27864,27865,0,27860,27861,27862,27863,27864,0,0,0,0,0,0,0,0,0,0,0,0,0,27816,27817,27818,27819,27820,27821,27823,27824,27825,27826,27827,27828,27830,27831,27832,27833,27834,27835,27836,27837,0,0,0,0,0,0,0,0,0,0,0,0,0,0,0,0,27816,27817,27818,27819,27820,27821,27823,27824,27825,27826,27827,27828,27830,27831,27832,27833,27834,27835,27836,27837,0,0,0,0,0,0,0,0,0,0,0,0,0,0
</data>
 </layer>
 <layer id="9" name="tree2" width="150" height="20">
  <data encoding="csv">
0,0,0,0,0,0,0,0,0,0,0,0,0,0,0,0,0,0,0,0,0,0,0,0,0,0,0,0,0,0,0,0,0,0,0,0,0,0,0,0,0,0,0,0,0,0,0,0,0,0,0,0,0,0,0,0,0,0,0,0,0,0,0,0,0,0,0,0,0,0,0,0,0,0,0,0,0,0,0,0,0,0,0,0,0,0,0,0,0,0,0,0,0,0,0,0,0,0,0,0,0,0,0,0,0,0,0,0,0,0,0,0,0,0,0,0,0,0,0,0,0,0,0,0,0,0,0,0,0,0,0,0,0,0,0,0,0,0,0,0,0,0,0,0,0,0,0,0,0,0,
0,0,0,0,0,0,0,0,0,0,0,0,0,0,0,0,0,0,0,0,0,0,0,0,0,0,0,0,0,0,0,0,0,0,0,0,0,0,0,0,0,0,0,0,0,0,0,0,0,0,0,0,0,0,0,0,0,0,0,0,0,0,0,0,0,0,0,0,0,0,0,0,0,0,0,0,0,0,0,0,0,0,0,0,0,0,0,0,0,0,0,0,0,0,0,0,0,0,0,0,0,0,0,0,0,0,0,0,0,0,0,0,0,0,0,0,0,0,0,0,0,0,0,0,0,0,0,0,0,0,0,0,0,0,0,0,0,0,0,0,0,0,0,0,0,0,0,0,0,0,
0,0,0,0,0,0,0,0,0,0,0,0,0,0,0,0,0,0,26983,26984,26985,26986,26987,26988,26990,26991,26992,26993,26994,26995,26996,26997,0,0,0,0,0,0,0,0,0,0,0,0,0,0,0,0,0,0,0,0,0,0,0,26983,26984,26985,26986,26987,26988,26990,26991,26992,26993,26994,26995,0,0,0,0,0,0,0,0,0,0,0,0,0,0,0,0,0,0,0,0,0,0,0,0,0,0,0,0,0,0,0,0,0,0,0,0,0,0,0,0,0,0,0,0,0,0,0,0,0,0,0,0,0,0,0,0,0,0,0,0,0,0,0,0,0,0,0,0,0,0,0,0,0,0,0,0,0,0,0,0,0,0,0,
0,0,0,0,0,0,0,0,0,0,0,0,0,0,0,0,0,0,27039,27040,27041,27042,27043,27044,27046,27047,27048,27049,27050,27051,27052,27053,0,0,0,0,0,0,0,0,0,0,0,0,0,0,0,0,0,0,0,0,0,0,0,27039,27040,27041,27042,27043,27044,27046,27047,27048,27049,27050,27051,0,0,0,0,0,0,0,0,0,0,0,0,0,0,0,0,0,0,0,0,0,0,0,0,0,0,0,0,0,0,0,0,0,0,0,0,0,0,0,0,0,0,0,0,0,0,0,0,0,0,0,0,0,0,0,0,0,0,0,0,0,0,0,0,0,0,0,0,0,0,0,0,0,0,0,0,0,0,0,0,0,0,0,
0,0,0,0,0,0,0,0,0,0,0,0,0,0,0,0,0,0,27095,27096,27097,27098,27099,27100,27102,27103,27104,27105,27106,27107,27108,27109,0,0,0,0,0,0,0,0,0,0,0,0,0,0,0,0,0,0,0,0,0,0,0,27095,27096,27097,27098,27099,27100,27102,27103,27104,27105,27106,27107,0,0,0,0,0,0,0,0,0,0,0,0,0,0,0,0,0,0,0,0,0,0,0,0,0,0,0,0,0,0,0,0,0,0,0,0,0,0,0,0,0,0,0,0,0,0,0,0,0,0,0,0,0,0,0,0,0,0,0,0,0,0,0,0,0,0,0,0,0,0,0,0,0,0,0,0,0,0,0,0,0,0,0,
0,0,0,0,0,0,0,0,0,0,0,0,0,0,0,0,0,0,27151,27152,27153,27154,27155,27156,27158,27159,27160,27161,27162,27163,27164,27165,0,0,0,0,0,0,0,0,0,0,0,0,0,0,0,0,0,0,0,0,0,0,0,27151,27152,27153,27154,27155,27156,27158,27159,27160,27161,27162,27163,0,0,0,0,0,0,0,0,0,0,0,0,0,0,0,0,0,0,0,0,0,0,0,0,0,0,0,0,0,0,0,0,0,0,0,0,0,0,0,0,0,0,0,0,0,0,0,0,0,0,0,0,0,0,0,0,0,0,0,0,0,0,0,0,0,0,0,0,0,0,0,0,0,0,0,0,0,0,0,0,0,0,0,
0,0,0,0,0,0,0,0,0,0,0,0,0,0,0,0,0,0,27207,27208,27209,27210,27211,27212,27214,27215,27216,27217,27218,27219,27220,27221,0,0,0,0,0,0,0,0,0,0,0,0,0,0,0,0,0,0,0,0,0,0,0,27207,27208,27209,27210,27211,27212,27214,27215,27216,27217,27218,27219,0,0,0,0,0,0,0,0,0,0,0,0,0,0,0,0,0,0,0,0,0,0,0,0,0,0,0,0,0,0,0,0,0,0,0,0,0,0,0,0,0,0,0,0,0,0,0,0,0,0,0,0,0,0,0,0,0,0,0,0,0,0,0,0,0,0,0,0,0,0,0,0,0,0,0,0,0,0,0,0,0,0,0,
0,0,0,0,0,0,0,0,0,0,0,0,0,0,0,0,0,0,27263,27264,27265,27266,27267,27268,27270,27271,27272,27273,27274,27275,27276,27277,0,0,0,0,0,0,0,0,0,0,0,0,0,0,0,0,0,0,0,0,0,0,0,27263,27264,27265,27266,27267,27268,27270,27271,27272,27273,27274,27275,0,0,0,0,0,0,0,0,0,0,0,0,0,0,0,0,0,0,0,0,0,0,0,0,0,0,0,0,0,0,0,0,0,0,0,0,0,0,0,0,0,0,0,0,0,0,0,0,0,0,0,0,0,0,0,0,0,0,0,0,0,0,0,0,0,11856,11857,11858,11859,11860,11861,0,0,0,0,0,0,0,0,0,0,0,0,
0,0,0,0,0,0,0,0,0,0,0,0,0,0,0,0,0,0,27319,27320,27321,27322,27323,27324,27326,27327,27328,27329,27330,27331,27332,27333,0,0,0,0,0,0,0,0,0,0,0,0,0,0,0,0,0,0,0,0,0,0,0,27319,27320,27321,27322,27323,27324,27326,27327,27328,27329,27330,27331,0,0,0,0,0,0,0,0,0,0,0,0,0,0,0,0,0,0,0,0,0,0,0,0,0,0,0,0,0,0,0,0,0,0,0,0,0,0,0,0,0,0,0,0,0,0,0,0,0,0,0,0,0,0,0,0,0,0,0,0,0,0,0,0,0,11940,11941,11942,11943,11944,11945,13032,13033,13034,13035,13036,13037,0,0,0,0,0,0,
0,0,0,0,0,0,0,0,0,0,0,0,0,0,0,0,0,0,27375,27376,27377,27378,27379,27380,27382,27383,27384,27385,27386,27387,27388,27389,0,0,0,0,0,0,0,0,0,0,0,0,0,0,0,0,0,0,0,0,0,0,0,27375,27376,27377,27378,27379,27380,27382,27383,27384,27385,27386,27387,0,0,0,0,0,0,0,0,0,0,0,0,0,0,0,0,0,0,0,0,0,0,0,0,0,0,0,0,0,0,0,0,0,0,0,0,0,0,0,0,0,0,0,0,0,0,0,0,0,0,0,0,0,0,0,0,0,0,0,0,0,0,0,0,0,12024,12025,12026,12027,12028,12029,13116,13117,13118,13119,13120,13121,0,0,0,0,0,0,
0,0,0,0,0,0,0,0,0,0,0,0,0,0,0,0,0,0,27431,27432,27433,27434,27435,27436,27438,27439,27440,27441,27442,27443,27444,27445,0,0,0,0,0,0,0,0,0,0,0,0,0,0,0,0,0,0,0,0,0,0,0,27431,27432,27433,27434,27435,27436,27438,27439,27440,27441,27442,27443,0,0,0,0,0,0,0,0,0,0,0,0,0,0,0,0,0,0,0,0,0,0,0,0,0,0,0,0,0,0,0,0,0,0,0,0,0,0,0,0,0,0,0,0,0,0,0,0,0,0,0,0,0,0,0,0,0,0,0,0,0,0,0,0,0,12108,12109,12110,12111,12112,12113,13200,13201,13202,13203,13204,13205,0,0,0,0,0,0,
0,0,0,0,0,0,0,0,0,0,0,0,0,0,0,0,0,0,27487,27488,27489,27490,27491,27492,27494,27495,27496,27497,27498,27499,27500,27501,0,0,0,0,0,0,0,0,0,0,0,0,0,0,0,0,0,0,0,0,0,0,0,27487,27488,27489,27490,27491,27492,27494,27495,27496,27497,27498,27499,0,0,0,0,0,0,0,0,0,0,0,0,0,0,0,0,0,0,0,0,0,0,0,0,0,0,0,0,0,0,0,0,0,0,0,0,0,0,0,0,0,0,0,0,0,0,0,0,0,0,0,0,0,0,0,0,0,0,0,0,0,0,0,0,0,12192,12193,12194,12195,12196,12197,13284,13285,13286,13287,13288,13289,0,0,0,0,0,0,
0,0,0,0,0,0,0,0,0,0,0,0,0,0,0,0,0,0,27543,27544,27545,27546,27547,27548,27550,27551,27552,27553,27554,27555,27556,27557,0,0,0,0,0,0,0,0,0,0,0,0,0,0,0,0,0,0,0,0,0,0,0,27543,27544,27545,27546,27547,27548,27550,27551,27552,27553,27554,27555,0,0,0,0,0,0,0,0,0,0,0,0,0,0,0,0,0,0,0,0,0,0,0,0,0,0,0,0,0,0,0,0,0,0,0,0,0,0,0,0,0,0,0,0,0,0,0,0,0,0,0,0,0,0,0,0,0,0,0,0,0,0,0,0,0,12276,12277,12278,12279,12280,12281,13368,13369,13370,13371,13372,13373,0,0,0,0,0,0,
0,0,0,0,0,0,0,0,0,0,0,0,0,0,0,0,0,0,27599,27600,27601,27602,27603,27604,27606,27607,27608,27609,27610,27611,27612,27613,0,0,0,0,0,0,0,0,0,0,0,0,0,0,0,0,0,0,0,0,0,0,0,27599,27600,27601,27602,27603,27604,27606,27607,27608,27609,27610,27611,0,0,0,0,0,0,0,0,0,0,0,0,0,0,0,0,0,0,0,0,0,0,0,0,0,0,0,0,0,0,0,0,0,0,0,0,0,0,0,0,0,0,0,0,0,0,0,0,0,0,0,0,0,0,0,0,0,0,0,0,0,0,0,0,0,12360,12361,12362,12363,12364,12365,13452,13453,13454,13455,13456,13457,0,0,0,0,0,0,
0,0,0,0,0,0,0,0,0,0,0,0,0,0,0,0,0,0,27655,27656,27657,27658,27659,27660,27662,27663,27664,27665,27666,27667,27668,27669,0,0,0,0,0,0,0,0,0,0,0,0,0,0,0,0,0,0,0,0,0,0,0,27655,27656,27657,27658,27659,27660,27662,27663,27664,27665,27666,27667,0,0,0,0,0,0,0,0,0,0,0,0,0,0,0,0,0,0,0,0,0,0,0,0,0,0,0,0,0,0,0,0,0,0,0,0,0,0,0,0,0,0,0,0,0,0,0,0,0,0,0,0,0,0,0,0,0,0,0,0,0,0,0,0,0,12444,12445,12446,12447,12448,12449,13536,13537,13538,13539,13540,13541,0,0,0,0,0,0,
0,0,0,0,0,0,0,0,0,0,0,0,0,0,0,0,0,0,27711,27712,27713,27714,27715,27716,27718,27719,27720,27721,27722,27723,27724,27725,0,0,0,0,0,0,0,0,0,0,0,0,0,0,0,0,0,0,0,0,0,0,0,27711,27712,27713,27714,27715,27716,27718,27719,27720,27721,27722,27723,0,0,0,0,0,0,0,0,0,0,0,0,0,0,0,0,0,0,0,0,0,0,0,0,0,0,0,0,0,0,0,0,0,0,0,0,0,0,0,0,0,0,0,0,0,0,0,0,0,0,0,0,0,0,0,0,0,0,0,0,0,0,0,0,0,12528,12529,12530,12531,12532,12533,13620,13621,13622,13623,13624,13625,0,0,0,0,0,0,
0,0,0,0,0,0,0,0,0,0,0,0,0,0,0,0,0,0,27767,27768,27769,27770,27771,27772,27774,27775,27776,27777,27778,27779,27780,27781,0,0,0,0,0,0,0,0,0,0,0,0,0,0,0,0,0,0,0,0,0,0,0,27767,27768,27769,27770,27771,27772,27774,27775,27776,27777,27778,27779,0,0,0,0,0,0,0,0,0,0,0,0,0,0,0,0,0,0,0,0,0,0,0,0,0,0,0,0,0,0,0,0,0,0,0,0,0,0,0,0,0,0,0,0,0,0,0,0,0,0,0,0,0,0,0,0,0,0,0,0,0,0,0,0,0,12612,12613,12614,12615,12616,12617,13704,13705,13706,13707,13708,13709,0,0,0,0,0,0,
0,0,0,0,0,0,0,0,0,0,0,0,0,0,0,0,0,0,27823,27824,27825,27826,27827,27828,27830,27831,27832,27833,27834,27835,27836,27837,0,0,0,0,0,0,0,0,0,0,0,0,0,0,0,0,0,0,0,0,0,0,0,27823,27824,27825,27826,27827,27828,27830,27831,27832,27833,27834,27835,0,0,0,0,0,0,0,0,0,0,0,0,0,0,0,0,0,0,0,0,0,0,0,0,0,0,0,0,0,0,0,0,0,0,0,0,0,0,0,0,0,0,0,0,0,0,0,0,0,0,0,0,0,0,0,0,0,0,0,0,0,0,0,0,0,12696,12697,12698,12699,12700,12701,0,0,0,0,0,0,0,0,0,0,0,0,
0,0,0,0,0,0,0,0,0,0,0,0,0,0,0,0,0,0,0,0,0,0,0,0,0,0,0,0,0,0,0,0,0,0,0,0,0,0,0,0,0,0,0,0,0,0,0,0,0,0,0,0,0,0,0,0,0,0,0,0,0,0,0,0,0,0,0,0,0,0,0,0,0,0,0,0,0,0,0,0,0,0,0,0,0,0,0,0,0,0,0,0,0,0,0,0,0,0,0,0,0,0,0,0,0,0,0,0,0,0,0,0,0,0,0,0,0,0,0,0,0,0,0,0,0,0,0,0,0,0,0,0,12780,12781,12782,12783,12784,12785,0,0,0,0,0,0,0,0,0,0,0,0,
0,0,0,0,0,0,0,0,0,0,0,0,0,0,0,0,0,0,0,0,0,0,0,0,0,0,0,0,0,0,0,0,0,0,0,0,0,0,0,0,0,0,0,0,0,0,0,0,0,0,0,0,0,0,0,0,0,0,0,0,0,0,0,0,0,0,0,0,0,0,0,0,0,0,0,0,0,0,0,0,0,0,0,0,0,0,0,0,0,0,0,0,0,0,0,0,0,0,0,0,0,0,0,0,0,0,0,0,0,0,0,0,0,0,0,0,0,0,0,0,0,0,0,0,0,0,0,0,0,0,0,0,12864,12865,12866,12867,12868,12869,0,0,0,0,0,0,0,0,0,0,0,0
</data>
 </layer>
 <layer id="8" name="background-tree" width="150" height="20">
  <data encoding="csv">
0,0,0,0,0,0,0,0,0,0,0,0,0,0,0,0,0,0,0,0,0,0,0,0,0,0,0,0,0,0,0,0,0,0,0,0,0,0,0,0,0,0,0,0,0,0,0,0,0,0,0,0,0,0,0,0,0,0,0,0,0,0,0,0,0,0,0,0,0,0,0,0,0,0,0,0,0,0,0,0,0,0,0,0,0,0,0,0,0,0,0,0,0,0,0,0,0,0,0,0,0,0,0,0,0,0,0,0,0,10092,10093,10094,0,0,10097,10098,0,0,0,0,0,0,0,0,0,0,0,0,0,0,0,0,0,0,0,0,0,0,0,0,0,0,0,0,0,0,0,11856,11857,11858,
0,0,0,0,0,0,0,0,0,0,0,0,0,0,0,0,0,0,0,0,0,0,0,0,0,0,0,0,0,0,0,0,0,0,0,0,0,0,0,0,0,0,0,0,0,0,0,0,0,0,0,0,0,0,0,0,0,0,0,0,0,0,0,0,0,0,0,0,0,0,0,0,0,0,0,0,0,0,0,0,0,0,0,0,0,0,0,0,0,0,0,0,0,0,0,0,0,0,0,0,0,0,0,0,0,0,0,0,0,10176,10177,0,0,0,10181,10182,0,0,0,0,0,0,0,0,0,0,0,0,0,0,0,0,0,0,0,0,0,0,0,0,0,0,0,0,0,0,0,11940,11941,11942,
0,0,0,0,0,0,0,0,0,0,0,0,26976,26977,26978,26979,26980,26981,0,0,0,0,0,0,0,0,0,0,0,0,0,0,0,0,0,0,0,0,0,0,0,0,0,0,0,0,0,0,0,26976,26977,26978,26979,26980,26981,0,0,0,0,0,0,0,0,0,0,0,0,0,0,0,0,0,0,0,0,0,0,0,0,0,0,0,0,0,0,0,0,0,0,0,0,0,0,0,0,0,0,0,0,0,0,0,0,0,0,0,0,0,0,10260,0,0,0,0,0,10266,0,0,0,0,0,0,0,0,0,0,0,0,11856,11857,11858,11859,11860,11861,0,0,0,0,0,0,0,11856,11857,11858,11859,11860,11861,12024,12025,12026,
0,0,0,0,0,0,0,0,0,0,0,0,27032,27033,27034,27035,27036,27037,0,0,0,0,0,0,0,0,0,0,0,0,0,0,0,0,0,0,0,0,0,0,0,0,0,0,0,0,0,0,0,27032,27033,27034,27035,27036,27037,0,0,0,0,0,0,0,0,0,0,0,0,0,0,0,0,0,0,0,0,0,0,0,0,0,0,0,0,0,0,0,0,0,0,0,0,0,0,0,0,0,0,0,0,0,0,0,0,0,0,0,0,0,0,10344,0,0,0,0,0,10350,0,0,0,0,0,0,0,0,0,0,0,0,11940,11941,11942,11943,11944,11945,0,0,0,0,0,0,0,11940,11941,11942,11943,11944,11945,12108,12109,12110,
0,0,0,0,0,0,0,0,0,0,0,0,27088,27089,27090,27091,27092,27093,0,0,0,0,0,0,0,0,0,0,0,0,0,0,0,0,0,0,0,0,0,0,0,0,0,0,0,0,0,0,0,27088,27089,27090,27091,27092,27093,0,0,0,0,0,0,0,0,0,0,0,0,0,0,0,0,0,0,0,0,0,0,0,0,0,0,0,0,0,0,0,0,0,0,0,0,0,0,0,0,0,0,0,0,0,0,0,0,0,0,0,0,0,26976,26977,26978,26979,26980,26981,26983,26984,26985,26986,26987,26988,26990,26991,26992,26993,26994,26995,26996,26997,12024,12025,12026,12027,12028,12029,0,0,0,0,0,0,0,12024,12025,12026,12027,12028,12029,12192,12193,12194,
0,0,0,0,0,0,0,0,0,0,0,0,27144,27145,27146,27147,27148,27149,27076,27077,27078,27079,27080,27081,0,0,0,0,0,0,0,0,0,0,0,0,0,0,0,0,0,0,0,0,0,0,0,0,0,27144,27145,27146,27147,27148,27149,27076,27077,27078,27079,27080,27081,0,0,0,0,0,0,0,0,0,0,0,0,0,0,0,0,0,0,0,0,0,0,0,0,0,0,0,0,0,0,0,0,0,0,0,0,0,0,0,0,0,0,0,0,0,0,0,27032,27033,27034,27035,27036,27037,27039,27040,27041,27042,27043,27044,27046,27047,27048,27049,27050,27051,27052,27053,12108,12109,12110,12111,12112,12113,0,0,0,0,0,0,0,12108,12109,12110,12111,12112,12113,12276,12277,12278,
0,0,0,0,0,0,0,0,0,0,0,0,27200,27201,27202,27203,27204,27205,27132,27133,27134,27135,27136,27137,0,0,0,0,0,0,0,0,0,0,0,0,0,0,0,0,0,0,0,0,0,0,0,0,0,27200,27201,27202,27203,27204,27205,27132,27133,27134,27135,27136,27137,0,0,0,0,0,0,0,0,0,0,0,0,0,0,0,0,0,0,0,0,0,0,0,0,0,0,0,0,0,0,0,0,0,0,0,0,0,0,0,0,0,0,0,0,0,0,0,27088,27089,27090,27091,27092,27093,27095,27096,27097,27098,27099,27100,27102,27103,27104,27105,27106,27107,27108,27109,12192,12193,12194,12195,12196,12197,0,0,0,0,0,0,0,12192,12193,12194,12195,12196,12197,12360,12361,12362,
0,0,0,0,0,0,0,0,0,0,0,0,27256,27257,27258,27259,27260,27261,27188,27189,27190,27191,27192,27193,0,0,0,0,0,0,0,0,0,0,0,0,0,0,0,0,0,0,0,0,0,0,0,0,0,27256,27257,27258,27259,27260,27261,27188,27189,27190,27191,27192,27193,0,0,0,0,0,0,0,0,0,0,0,0,0,0,0,0,0,0,0,0,0,0,0,0,0,0,0,0,0,0,0,0,0,0,0,0,0,0,0,0,0,0,0,0,0,0,0,27144,27145,27146,27147,27148,27149,27151,27152,27153,27154,27155,27156,27158,27159,27160,27161,27162,27163,27164,27165,12276,12277,12278,12279,12280,12281,0,11856,11857,11858,11859,11860,11861,12276,12277,12278,12279,12280,12281,12444,12445,12446,
0,0,0,0,0,0,0,0,0,0,0,0,27312,27313,27314,27315,27316,27317,27244,27245,27246,27247,27248,27249,0,0,0,0,0,0,0,0,0,0,0,0,0,0,0,0,0,0,0,0,0,0,0,0,0,27312,27313,27314,27315,27316,27317,27244,27245,27246,27247,27248,27249,0,0,0,0,0,0,0,0,0,0,0,0,0,0,0,0,0,0,0,0,0,0,0,0,0,0,0,0,0,0,0,0,0,0,0,0,0,0,0,0,0,0,0,0,0,0,0,27200,27201,27202,27203,27204,27205,27207,27208,27209,27210,27211,27212,27214,27215,27216,27217,27218,27219,27220,27221,12360,12361,12362,12363,12364,12365,0,11940,11941,11942,11943,11944,11945,12360,12361,12362,12363,12364,12365,12528,12529,12530,
0,0,0,0,0,0,0,0,0,0,0,0,27368,27369,27370,27371,27372,27373,27300,27301,27302,27303,27304,27305,0,0,0,0,0,0,0,0,0,0,0,0,0,0,0,0,0,0,0,0,0,0,0,0,0,27368,27369,27370,27371,27372,27373,27300,27301,27302,27303,27304,27305,0,0,0,0,0,0,0,0,0,0,0,0,0,0,0,0,0,0,0,0,0,0,0,0,0,0,0,0,0,0,0,0,0,0,0,0,0,0,0,0,0,0,0,0,0,0,0,27256,27257,27258,27259,27260,27261,27263,27264,27265,27266,27267,27268,27270,27271,27272,27273,27274,27275,27276,27277,12444,12445,12446,12447,12448,12449,0,12024,12025,12026,12027,12028,12029,12444,12445,12446,12447,12448,12449,12612,12613,12614,
0,0,0,0,0,0,0,0,0,0,0,0,27424,27425,27426,27427,27428,27429,27356,27357,27358,27359,27360,27361,0,0,0,0,0,0,0,0,0,0,0,0,0,0,0,0,0,0,0,0,0,0,0,0,0,27424,27425,27426,27427,27428,27429,27356,27357,27358,27359,27360,27361,0,0,0,0,0,0,0,0,0,0,0,0,0,0,0,0,0,0,0,0,0,0,0,0,0,0,0,0,0,0,0,0,0,0,0,0,0,0,0,0,0,0,0,0,0,0,0,27312,27313,27314,27315,27316,27317,27319,27320,27321,27322,27323,27324,27326,27327,27328,27329,27330,27331,27332,27333,12528,12529,12530,12531,12532,12533,0,12108,12109,12110,12111,12112,12113,12528,12529,12530,12531,12532,12533,12696,12697,12698,
0,0,0,0,0,0,0,0,0,0,0,0,27480,27481,27482,27483,27484,27485,27412,27413,27414,27415,27416,27417,0,0,0,0,0,0,0,0,0,0,0,0,0,0,0,0,0,0,0,0,0,0,0,0,0,27480,27481,27482,27483,27484,27485,27412,27413,27414,27415,27416,27417,0,0,0,0,0,0,0,0,0,0,0,0,0,0,0,0,0,0,0,0,0,0,0,0,0,0,0,0,0,0,0,0,0,0,0,0,0,0,0,0,0,0,0,0,0,0,0,27368,27369,27370,27371,27372,27373,27375,27376,27377,27378,27379,27380,27382,27383,27384,27385,27386,27387,27388,27389,12612,12613,12614,12615,12616,12617,0,12192,12193,12194,12195,12196,12197,12612,12613,12614,12615,12616,12617,12780,12781,12782,
0,0,0,0,0,0,0,0,0,0,0,0,27536,27537,27538,27539,27540,27541,27468,27469,27470,27471,27472,27473,0,0,0,0,0,0,0,0,0,0,0,0,0,0,0,0,0,0,0,0,0,0,0,0,0,27536,27537,27538,27539,27540,27541,27468,27469,27470,27471,27472,27473,0,0,0,0,0,0,0,0,0,0,0,0,0,0,0,0,0,0,0,0,0,0,0,0,0,0,0,0,0,0,0,0,0,0,0,0,0,0,0,0,0,0,0,0,0,0,0,27424,27425,27426,27427,27428,27429,27431,27432,27433,27434,27435,27436,27438,27439,27440,27441,27442,27443,27444,27445,12696,12697,12698,12699,12700,12701,0,12276,12277,12278,12279,12280,12281,12696,12697,12698,12699,12700,12701,12864,12865,12866,
0,0,0,0,0,0,0,0,0,0,0,0,27592,27593,27594,27595,27596,27597,27524,27525,27526,27527,27528,27529,0,0,0,0,0,0,0,0,0,0,0,0,0,0,0,0,0,0,0,0,0,0,0,0,0,27592,27593,27594,27595,27596,27597,27524,27525,27526,27527,27528,27529,0,0,0,0,0,0,0,0,0,0,0,0,0,0,0,0,0,0,0,0,0,0,0,0,0,0,0,0,0,0,0,0,0,0,0,0,0,0,0,0,0,0,0,0,0,0,0,27480,27481,27482,27483,27484,27485,27487,27488,27489,27490,27491,27492,27494,27495,27496,27497,27498,27499,27500,27501,12780,12781,12782,12783,12784,12785,0,12360,12361,12362,12363,12364,12365,12780,12781,12782,12783,12784,12785,0,0,0,
0,0,0,0,0,0,0,0,0,0,0,0,27648,27649,27650,27651,27652,27653,27580,27581,27582,27583,27584,27585,0,0,0,0,0,0,0,0,0,0,0,0,0,0,0,0,0,0,0,0,0,0,0,0,0,27648,27649,27650,27651,27652,27653,27580,27581,27582,27583,27584,27585,0,0,0,0,0,0,0,0,0,0,0,0,0,0,0,0,0,0,0,0,0,0,0,0,0,0,0,0,0,0,0,0,0,0,0,0,0,0,0,0,0,0,0,0,0,0,0,27536,27537,27538,27539,27540,27541,27543,27544,27545,27546,27547,27548,27550,27551,27552,27553,27554,27555,27556,27557,12864,12865,12866,12867,12868,12869,0,12444,12445,12446,12447,12448,12449,12864,12865,12866,12867,12868,12869,0,0,0,
0,0,0,0,0,0,0,0,0,0,0,0,27704,27705,27706,27707,27708,27709,27636,27637,27638,27639,27640,27641,0,0,0,0,0,0,0,0,0,0,0,0,0,0,0,0,0,0,0,0,0,0,0,0,0,27704,27705,27706,27707,27708,27709,27636,27637,27638,27639,27640,27641,0,0,0,0,0,0,0,0,0,0,0,0,0,0,0,0,0,0,0,0,0,0,0,0,0,0,0,0,0,0,0,0,0,0,0,0,0,0,0,0,0,0,0,0,0,0,0,27592,27593,27594,27595,27596,27597,27599,27600,27601,27602,27603,27604,27606,27607,27608,27609,27610,27611,27612,27613,12533,0,0,0,0,0,0,12528,12529,12530,12531,12532,12533,0,0,0,0,0,0,0,0,0,
0,0,0,0,0,0,0,0,0,0,0,0,27760,27761,27762,27763,27764,27765,27692,27693,27694,27695,27696,27697,0,0,0,0,0,0,0,0,0,0,0,0,0,0,0,0,0,0,0,0,0,0,0,0,0,27760,27761,27762,27763,27764,27765,27692,27693,27694,27695,27696,27697,0,0,0,0,0,0,0,0,0,0,0,0,0,0,0,0,0,0,0,0,0,0,0,0,0,0,0,0,0,0,0,0,0,0,0,0,0,0,0,0,0,0,0,0,0,0,0,27648,27649,27650,27651,27652,27653,27655,27656,27657,27658,27659,27660,27662,27663,27664,27665,27666,27667,27668,27669,12617,0,0,0,0,0,0,12612,12613,12614,12615,12616,12617,0,0,0,0,0,0,0,0,0,
0,0,0,0,0,0,0,0,0,0,0,0,27816,27817,27818,27819,27820,27821,27748,27749,27750,27751,27752,27753,0,0,0,0,0,0,0,0,0,0,0,0,0,0,0,0,0,0,0,0,0,0,0,0,0,27816,27817,27818,27819,27820,27821,27748,27749,27750,27751,27752,27753,0,0,0,0,0,0,0,0,0,0,0,0,0,0,0,0,0,0,0,0,0,0,0,0,0,0,0,0,0,0,0,0,0,0,0,0,0,0,0,0,0,0,0,0,0,0,0,27704,27705,27706,27707,27708,27709,27711,27712,27713,27714,27715,27716,27718,27719,27720,27721,27722,27723,27724,27725,12701,0,0,0,0,0,0,12696,12697,12698,12699,12700,12701,0,0,0,0,0,0,0,0,0,
0,0,0,0,0,0,0,0,0,0,0,0,0,0,0,0,0,0,27804,27805,27806,27807,27808,27809,0,0,0,0,0,0,0,0,0,0,0,0,0,0,0,0,0,0,0,0,0,0,0,0,0,0,0,0,0,0,0,27804,27805,27806,27807,27808,27809,0,0,0,0,0,0,0,0,0,0,0,0,0,0,0,0,0,0,0,0,0,0,0,0,0,0,0,0,0,0,0,0,0,0,0,0,0,0,0,0,0,0,0,0,0,0,0,27760,27761,27762,27763,27764,27765,27767,27768,27769,27770,27771,27772,27774,27775,27776,27777,27778,27779,27780,27781,12785,0,0,0,0,0,0,12780,12781,12782,12783,12784,12785,0,0,0,0,0,0,0,0,0,
0,0,0,0,0,0,0,0,0,0,0,0,0,0,0,0,0,0,27860,27861,27862,27863,27864,27865,0,0,0,0,0,0,0,0,0,0,0,0,0,0,0,0,0,0,0,0,0,0,0,0,0,0,0,0,0,0,0,27860,27861,27862,27863,27864,27865,0,0,0,0,0,0,0,0,0,0,0,0,0,0,0,0,0,0,0,0,0,0,0,0,0,0,0,0,0,0,0,0,0,0,0,0,0,0,0,0,0,0,0,0,0,0,0,27816,27817,27818,27819,27820,27821,27823,27824,27825,27826,27827,27828,27830,27831,27832,27833,27834,27835,27836,27837,12869,0,0,0,0,0,0,12864,12865,12866,12867,12868,12869,0,0,0,0,0,0,0,0,0
</data>
 </layer>
 <layer id="12" name="gktau" width="150" height="20">
  <data encoding="csv">
0,0,0,0,0,0,0,0,0,0,0,0,0,0,0,0,0,0,0,0,0,0,0,0,0,0,0,0,0,0,0,0,0,0,0,0,0,0,0,0,0,0,0,0,0,0,0,0,0,0,0,0,0,0,0,0,0,0,0,0,0,0,0,0,0,0,0,0,0,0,0,0,0,0,0,0,1776,1777,1778,1779,1780,1781,0,0,0,0,0,0,0,0,0,0,0,0,0,0,0,0,0,0,0,0,0,0,0,0,0,0,0,0,0,0,0,0,0,0,0,0,0,0,0,0,0,0,0,0,0,0,0,0,0,0,0,0,0,0,0,0,0,0,0,0,0,0,0,0,0,0,0,0,
0,0,0,0,0,0,0,0,0,0,0,0,0,0,0,0,0,0,0,0,0,0,0,0,0,0,0,0,0,0,0,0,0,0,0,0,0,0,0,0,0,0,0,0,0,0,0,0,0,0,0,0,0,0,0,0,0,0,0,0,0,0,0,0,0,0,0,0,0,0,0,0,0,0,0,0,1860,1861,1862,1863,1864,1865,0,0,3708,3709,3710,3711,3712,3713,3714,0,0,0,0,0,0,0,0,0,0,0,0,0,0,0,0,0,0,0,0,0,0,0,0,0,0,0,0,0,0,0,0,0,0,0,0,0,0,0,0,0,0,0,0,0,0,0,0,0,0,0,0,0,0,0,0,0,0,0,
0,0,0,0,0,0,0,0,0,0,0,0,0,0,0,0,0,0,0,0,0,0,0,0,0,0,0,0,0,0,0,0,0,0,0,0,0,0,0,0,0,0,0,0,0,0,0,0,0,0,0,0,0,0,0,0,0,0,0,0,0,0,0,0,0,0,0,0,0,0,0,0,0,0,0,0,1944,1945,1946,1947,1948,1949,0,0,3792,3793,3794,3795,3796,3797,3798,0,0,0,0,0,0,0,0,0,0,0,0,0,0,0,0,0,0,0,0,0,0,0,0,0,0,0,0,0,0,0,0,0,0,0,0,0,0,0,0,0,0,0,0,0,0,0,0,0,0,0,0,0,0,0,0,0,0,0,
0,0,0,0,0,0,0,0,0,0,0,0,0,0,0,0,0,0,0,0,0,0,0,3708,3709,3710,3711,3712,3713,3714,0,0,0,0,0,0,0,0,0,0,0,0,0,0,0,0,0,0,0,0,0,0,0,0,0,0,0,0,0,0,0,0,0,0,0,0,0,0,3708,3709,3710,3711,3712,3713,3714,0,2028,2029,2030,2031,2032,2033,0,0,3876,3877,3878,3879,3880,3881,3882,0,0,0,0,0,0,0,0,0,0,0,0,0,0,0,0,0,0,0,0,0,0,0,0,0,0,0,0,0,0,0,0,0,0,0,0,0,0,0,0,0,0,0,0,0,0,0,0,0,0,0,0,0,0,0,0,0,0,0,
0,0,0,0,0,0,0,0,0,0,0,0,0,0,0,0,0,0,0,0,0,0,0,3792,3793,3794,3795,3796,3797,3798,0,0,0,0,0,0,0,0,0,0,0,0,0,0,0,0,0,0,0,0,0,0,0,0,0,0,3708,3709,3710,3711,3712,3713,3714,0,0,0,0,0,3792,3793,3794,3795,3796,3797,3798,0,2112,2113,2114,2115,2116,2117,0,0,3960,3961,3962,3963,3964,3965,3966,0,0,0,0,0,0,0,0,0,0,0,0,0,0,0,0,0,0,0,0,0,0,0,0,0,0,0,0,0,0,0,0,0,0,0,0,0,0,0,0,0,0,0,0,0,0,0,0,0,0,0,0,0,0,0,0,0,0,0,
0,0,0,0,0,0,0,0,0,0,0,0,0,0,0,0,0,0,0,0,0,0,0,3876,3877,3878,3879,3880,3881,3882,0,0,0,0,0,0,0,0,0,0,0,0,0,0,0,0,0,0,0,0,0,0,0,0,0,0,3792,3793,3794,3795,3796,3797,3798,0,0,0,0,0,3876,3877,3878,3879,3880,3881,3882,0,2196,2197,2198,2199,2200,2201,0,0,4044,4045,4046,4047,4048,4049,4050,0,0,0,0,0,0,0,0,0,0,0,0,0,0,0,0,0,0,0,0,0,0,0,0,0,0,0,0,0,0,0,0,0,0,0,0,0,0,0,0,0,0,0,0,0,0,0,0,0,0,0,0,0,0,0,0,0,0,0,
0,0,0,0,0,0,0,0,0,0,0,0,0,0,0,0,0,0,0,0,0,0,0,3960,3961,3962,3963,3964,3965,3966,0,0,0,0,0,0,0,0,0,0,0,0,0,0,0,0,0,0,0,0,0,0,0,0,0,0,3876,3877,3878,3879,3880,3881,3882,0,0,0,0,0,3960,3961,3962,3963,3964,3965,3966,0,2280,2281,2282,2283,2284,2285,0,0,4128,4129,4130,4131,4132,4133,4134,0,0,0,0,0,0,0,0,0,0,0,0,0,0,0,0,0,0,0,0,0,0,0,0,0,0,0,0,0,0,0,0,0,0,0,0,0,0,0,0,0,0,0,0,0,0,0,0,0,0,0,0,0,0,0,0,0,0,0,
0,0,0,0,0,0,0,0,0,0,0,0,0,0,0,0,0,0,0,0,0,0,0,4044,4045,4046,4047,4048,4049,4050,0,0,0,0,0,0,0,0,0,0,0,0,0,0,0,0,0,0,0,0,0,0,0,0,0,0,3960,3961,3962,3963,3964,3965,3966,0,0,0,0,0,4044,4045,4046,4047,4048,4049,4050,0,2364,2365,2366,2367,2368,2369,0,0,4212,4213,4214,4215,4216,4217,4218,0,0,0,0,0,0,0,0,0,0,0,0,0,0,0,0,0,0,0,0,0,0,0,0,0,0,0,0,0,0,0,0,0,0,0,0,0,0,0,0,0,0,0,0,0,0,0,0,0,0,0,0,0,0,0,0,0,0,0,
0,0,0,0,0,0,0,0,0,0,0,0,0,0,0,6773,6774,6775,6776,6777,6778,6779,0,4128,4129,4130,4131,4132,4133,4134,0,0,0,0,0,0,0,0,0,0,0,0,0,0,0,0,0,0,0,0,0,0,0,0,0,0,4044,4045,4046,4047,4048,4049,4050,0,0,0,0,0,4128,4129,4130,4131,4132,4133,4134,0,2448,2449,2450,2451,2452,2453,0,0,4296,4297,4298,4299,4300,4301,4302,0,0,0,0,0,0,5597,5598,5599,5600,5601,5602,5603,0,0,0,5597,5598,5599,5600,5601,5602,5603,0,0,0,0,0,0,0,0,0,0,0,0,0,0,0,0,0,0,0,0,0,0,0,0,0,0,0,0,0,0,0,0,0,0,0,0,
0,0,0,0,0,0,0,0,0,0,0,0,0,0,0,6857,6858,6859,6860,6861,6862,6863,0,4212,4213,4214,4215,4216,4217,4218,0,0,0,0,0,0,0,0,0,0,0,3708,3709,3710,3711,3712,3713,3714,0,0,0,0,0,0,0,0,4128,4129,4130,4131,4132,4133,4134,0,0,0,0,0,4212,4213,4214,4215,4216,4217,4218,0,2532,2533,2534,2535,2536,2537,0,0,4380,4381,4382,4383,4384,4385,4386,0,0,0,0,0,0,5681,5682,5683,5684,5685,5686,5687,0,0,0,5681,5682,5683,5684,5685,5686,5687,0,0,0,0,0,0,0,0,0,0,0,0,0,0,0,0,0,0,0,0,0,0,0,0,0,0,0,0,0,0,0,0,0,0,0,0,
0,0,0,0,0,0,0,0,0,6773,6774,6775,6776,6777,6778,6941,6942,6943,6944,6945,6946,6947,0,4296,4297,4298,4299,4300,4301,4302,0,0,0,0,0,0,0,0,0,0,0,3792,3793,3794,3795,3796,3797,3798,0,0,0,0,0,0,0,0,4212,4213,4214,4215,4216,4217,4218,0,0,0,0,0,4296,4297,4298,4299,4300,4301,4302,0,2616,2617,2618,2619,2620,2621,0,0,4464,4465,4466,4467,4468,4469,4470,0,0,0,0,0,0,5765,5766,5767,5768,5769,5770,5771,0,0,0,5765,5766,5767,5768,5769,5770,5771,0,0,0,0,0,0,0,0,0,0,0,0,0,0,0,0,0,0,0,0,0,0,0,0,0,0,0,0,0,0,0,0,0,0,0,0,
0,7529,7530,7531,7532,7533,7534,0,0,6857,6858,6859,6860,6861,6862,7025,7026,7027,7028,7029,7030,7031,0,4380,4381,4382,4383,4384,4385,4386,0,0,0,0,0,0,0,0,0,0,0,3876,3877,3878,3879,3880,3881,3882,0,0,0,0,0,0,0,0,4296,4297,4298,4299,4300,4301,4302,0,0,0,0,0,4380,4381,4382,4383,4384,4385,4386,0,2700,2701,2702,2703,2704,2705,0,0,4548,4549,4550,4551,4552,4553,4554,0,0,0,0,0,0,5849,5850,5851,5852,5853,5854,5855,0,0,0,5849,5850,5851,5852,5853,5854,5855,0,0,0,0,0,0,0,0,0,0,0,0,0,0,0,0,0,0,0,0,0,0,0,0,0,0,0,0,0,0,0,0,0,0,0,0,
0,7613,7614,7615,7616,7617,7618,0,0,6941,6942,6943,6944,6945,6946,7109,7110,7111,7112,7113,7114,7115,0,4464,4465,4466,4467,4468,4469,4470,0,0,0,0,0,0,0,0,0,0,0,3960,3961,3962,3963,3964,3965,3966,0,0,0,0,0,0,0,0,4380,4381,4382,4383,4384,4385,4386,0,0,0,0,0,4464,4465,4466,4467,4468,4469,4470,0,2784,2785,2786,2787,2788,2789,0,0,4632,4633,4634,4635,4636,4637,4638,0,0,0,0,0,0,5933,5934,5935,5936,5937,5938,5939,0,0,0,5933,5934,5935,5936,5937,5938,5939,0,0,0,0,0,0,0,0,0,0,0,0,0,0,0,0,0,0,0,0,0,0,0,0,0,0,0,0,0,0,0,0,0,0,0,0,
0,7697,7698,7699,7700,7701,7702,0,0,7025,7026,7027,7028,7029,7030,7193,7194,7195,7196,7197,7198,7199,0,4548,4549,4550,4551,4552,4553,4554,0,0,0,0,0,0,0,0,0,0,0,4044,4045,4046,4047,4048,4049,4050,0,0,0,0,0,0,0,0,4464,4465,4466,4467,4468,4469,4470,0,0,0,0,0,4548,4549,4550,4551,4552,4553,4554,0,2868,2869,2870,2871,2872,2873,0,0,4716,4717,4718,4719,4720,4721,4722,0,0,0,0,0,0,6017,6018,6019,6020,6021,6022,6023,0,0,0,6017,6018,6019,6020,6021,6022,6023,0,0,0,0,0,0,0,0,0,0,0,0,0,0,0,0,0,0,0,0,0,0,0,0,0,0,0,0,0,0,0,0,0,0,0,0,
0,7781,7782,7783,7784,7785,7786,0,0,7109,7110,7111,7112,7113,7114,7277,7278,7279,7280,7281,7282,7283,0,4632,4633,4634,4635,4636,4637,4638,0,0,0,0,0,0,0,0,0,0,0,4128,4129,4130,4131,4132,4133,4134,0,0,0,0,0,0,0,0,4548,4549,4550,4551,4552,4553,4554,0,0,0,0,0,4632,4633,4634,4635,4636,4637,4638,0,2952,2953,2954,2955,2956,2957,0,0,4800,4801,4802,4803,4804,4805,4806,0,0,0,0,0,0,6101,6102,6103,6104,6105,6106,6107,0,0,0,6101,6102,6103,6104,6105,6106,6107,0,0,0,0,0,0,0,0,0,0,0,0,0,0,0,0,0,0,0,0,0,0,0,0,0,0,0,0,0,0,0,0,0,0,0,0,
0,7865,7866,7867,7868,7869,7870,0,0,7193,7194,7195,7196,7197,7198,7361,7362,7363,7364,7365,7366,7367,0,4716,4717,4718,4719,4720,4721,4722,0,0,0,0,0,0,0,0,0,0,0,4212,4213,4214,4215,4216,4217,4218,0,0,0,0,0,0,0,0,4632,4633,4634,4635,4636,4637,4638,0,0,0,0,0,4716,4717,4718,4719,4720,4721,4722,0,3036,3037,3038,3039,3040,3041,0,0,4884,4885,4886,4887,4888,4889,4890,0,0,0,0,0,0,6185,6186,6187,6188,6189,6190,6191,0,0,0,6185,6186,6187,6188,6189,6190,6191,0,0,0,0,0,0,0,0,0,0,0,0,0,0,0,0,0,0,0,0,0,0,0,0,0,0,0,0,0,0,0,0,0,0,0,0,
0,7949,7950,7951,7952,7953,7954,0,0,7277,7278,7279,7280,7281,7282,7445,7446,7447,7448,7449,7450,7451,0,4800,4801,4802,4803,4804,4805,4806,0,0,0,0,0,0,0,0,0,0,0,4296,4297,4298,4299,4300,4301,4302,0,0,0,0,0,0,0,0,4716,4717,4718,4719,4720,4721,4722,0,0,0,0,0,4800,4801,4802,4803,4804,4805,4806,0,3120,3121,3122,3123,3124,3125,0,0,4968,4969,4970,4971,4972,4973,4974,0,0,0,0,0,0,6269,6270,6271,6272,6273,6274,6275,0,0,0,6269,6270,6271,6272,6273,6274,6275,0,0,0,0,0,0,0,0,0,0,0,0,0,0,0,0,0,0,0,0,0,0,0,0,0,0,0,0,0,0,0,0,0,0,0,0,
0,8033,8034,8035,8036,8037,8038,0,0,7361,7362,7363,7364,7365,7366,7367,0,0,0,0,0,0,0,4884,4885,4886,4887,4888,4889,4890,0,0,0,0,0,0,0,0,0,0,0,4380,4381,4382,4383,4384,4385,4386,0,0,0,0,0,0,0,0,4800,4801,4802,4803,4804,4805,4806,0,0,0,0,0,4884,4885,4886,4887,4888,4889,4890,0,3204,3205,3206,3207,3208,3209,0,0,5052,5053,5054,5055,5056,5057,5058,0,0,0,0,0,0,6353,6354,6355,6356,6357,6358,6359,0,0,0,6353,6354,6355,6356,6357,6358,6359,0,0,0,0,0,0,0,0,0,0,0,0,0,0,0,0,0,0,0,0,0,0,0,0,0,0,0,0,0,0,0,0,0,0,0,0,
0,0,0,0,0,0,0,0,0,7445,7446,7447,7448,7449,7450,7451,0,0,0,0,0,0,0,4968,4969,4970,4971,4972,4973,4974,0,0,0,0,0,0,0,0,0,0,0,4464,4465,4466,4467,4468,4469,4470,0,0,0,0,0,0,0,0,4884,4885,4886,4887,4888,4889,4890,0,0,0,0,0,4968,4969,4970,4971,4972,4973,4974,0,3288,3289,3290,3291,3292,3293,0,0,5136,5137,5138,5139,5140,5141,5142,0,0,0,0,0,0,6437,6438,6439,6440,6441,6442,6443,0,0,0,6437,6438,6439,6440,6441,6442,6443,0,0,0,0,0,0,0,0,0,0,0,0,0,0,0,0,0,0,0,0,0,0,0,0,0,0,0,0,0,0,0,0,0,0,0,0,
0,0,0,0,0,0,0,0,0,0,0,0,0,0,0,0,0,0,0,0,0,0,0,5052,5053,5054,5055,5056,5057,5058,0,0,0,0,0,0,0,0,0,0,0,4548,4549,4550,4551,4552,4553,4554,0,0,0,0,0,0,0,0,4968,4969,4970,4971,4972,4973,4974,0,0,0,0,0,5052,5053,5054,5055,5056,5057,5058,0,3372,3373,3374,3375,3376,3377,0,0,5220,5221,5222,5223,5224,5225,5226,0,0,0,0,0,0,6521,6522,6523,6524,6525,6526,6527,0,0,0,6521,6522,6523,6524,6525,6526,6527,0,0,0,0,0,0,0,0,0,0,0,0,0,0,0,0,0,0,0,0,0,0,0,0,0,0,0,0,0,0,0,0,0,0,0,0
</data>
 </layer>
 <layer id="7" name="decoration" width="150" height="20">
  <data encoding="csv">
0,0,0,0,0,0,0,0,0,0,0,0,0,0,0,0,0,0,0,0,0,0,0,0,0,0,0,0,0,0,0,0,0,0,0,0,0,0,0,0,0,0,0,0,0,0,0,0,0,0,0,0,0,0,0,0,0,0,0,0,0,0,0,0,0,0,0,0,0,0,0,0,0,0,0,0,0,0,0,0,0,0,0,0,0,0,0,0,0,0,0,0,0,0,0,0,0,0,0,0,0,0,0,0,0,10,0,0,0,0,0,0,0,0,0,0,0,0,0,0,0,0,0,0,0,0,0,0,0,0,0,0,0,0,0,0,0,0,0,0,0,0,0,0,0,0,0,0,0,0,
0,0,0,0,0,0,0,0,0,0,0,0,0,0,0,0,0,0,0,0,0,0,0,0,0,0,0,0,0,0,0,0,0,0,0,0,0,0,0,0,0,0,0,0,0,0,0,0,0,0,0,0,0,0,0,0,0,0,0,0,0,0,0,0,0,0,0,0,0,0,0,0,0,0,0,0,0,0,0,0,0,0,0,0,0,0,0,0,0,0,0,0,0,0,0,0,0,0,0,0,0,0,0,0,0,35,0,0,0,0,0,0,0,0,0,0,0,0,0,0,0,0,0,0,0,0,0,0,0,0,0,0,0,0,0,0,0,0,0,0,0,0,0,0,0,0,0,0,0,0,
0,0,0,0,0,0,0,0,0,0,0,0,0,0,0,0,0,0,0,0,0,0,0,0,0,0,0,0,0,0,0,0,0,0,0,0,0,0,0,0,0,0,0,0,0,0,0,0,0,0,0,0,0,0,0,0,0,0,0,0,0,0,0,0,0,0,0,0,0,0,0,0,0,0,0,0,0,0,0,0,0,0,0,0,0,0,0,0,0,0,0,0,0,0,0,0,0,0,0,0,0,0,0,0,0,0,0,0,0,0,0,0,0,0,0,0,0,0,0,0,0,0,0,0,0,0,0,0,0,0,0,0,0,0,0,0,0,0,0,0,0,0,0,0,0,0,0,0,0,0,
0,0,0,0,0,0,0,0,0,0,0,0,0,0,0,0,0,0,0,0,0,0,0,0,0,0,0,0,0,0,0,0,0,0,0,0,0,0,0,0,0,0,0,0,0,0,0,0,0,0,0,0,0,0,0,0,0,0,0,0,0,0,0,0,0,0,0,0,0,0,0,0,0,0,0,0,0,0,0,0,0,0,0,0,0,0,0,0,0,0,0,0,0,0,0,0,0,0,0,0,0,0,0,0,0,0,0,0,0,0,0,0,0,0,0,0,0,0,0,0,0,0,0,0,0,0,0,0,0,0,0,0,0,0,0,0,0,0,0,0,0,0,0,0,0,0,0,0,0,0,
0,0,0,0,0,0,0,0,0,0,0,0,0,0,0,0,0,0,0,0,0,0,0,0,0,0,0,0,0,0,0,0,0,0,0,0,0,0,0,0,0,0,0,0,0,0,0,0,0,0,0,0,0,0,0,0,0,0,0,0,0,0,0,0,0,0,0,0,0,0,0,0,0,0,0,0,0,0,0,0,0,0,0,0,0,0,0,0,0,0,0,0,0,0,0,0,0,0,0,0,0,0,0,0,0,0,0,0,0,0,0,0,0,0,0,0,0,0,0,0,0,0,0,0,0,0,0,0,0,0,0,0,0,0,0,0,0,0,0,0,0,0,0,0,0,0,0,0,0,0,
0,0,0,0,0,0,0,0,0,0,0,0,0,0,0,0,0,0,0,0,0,0,0,0,0,0,0,0,0,0,0,0,0,0,0,0,0,0,0,0,0,0,0,0,0,0,0,0,0,0,0,0,0,0,0,0,0,0,0,0,0,0,0,0,0,0,0,0,0,0,0,0,0,0,0,0,0,0,0,0,0,0,0,0,0,0,0,0,0,0,0,0,0,0,0,0,0,0,0,0,0,0,0,0,0,0,0,0,0,0,0,0,0,0,0,0,0,0,0,0,0,0,0,0,0,0,0,0,0,0,0,0,0,0,0,0,0,0,0,0,0,0,0,0,0,0,0,0,0,0,
0,0,0,0,0,0,0,0,0,0,0,0,0,0,0,0,0,0,0,0,0,0,0,0,0,0,0,0,0,0,0,0,0,0,0,109,110,0,0,0,0,0,0,0,0,0,0,0,0,0,0,0,0,0,0,0,0,0,0,0,0,0,0,0,0,0,0,0,0,0,0,0,0,0,0,0,0,0,0,0,0,0,0,0,0,0,0,0,0,0,0,0,0,0,0,0,0,0,0,0,0,0,0,0,0,0,0,0,0,0,0,0,0,0,0,0,0,0,0,0,0,0,0,0,0,0,0,0,0,0,0,0,0,0,0,0,0,0,0,0,0,0,0,0,0,0,0,0,0,0,
0,0,0,0,0,0,0,0,0,0,0,0,0,0,0,0,0,0,0,0,0,0,0,0,0,0,0,0,0,0,0,0,0,0,0,134,135,0,0,0,0,0,0,0,0,0,0,0,0,0,0,0,0,0,0,0,0,0,0,0,0,0,0,0,0,0,0,0,0,0,0,0,0,0,0,0,0,0,0,0,0,0,0,0,0,0,0,0,0,0,0,0,0,0,0,0,0,0,0,0,0,0,0,0,0,0,0,0,0,0,0,0,0,0,0,0,0,0,0,426,427,428,0,0,0,0,0,0,0,0,0,0,0,0,0,0,0,0,0,0,0,0,0,0,0,0,0,0,0,0,
0,0,0,0,0,0,0,0,0,0,0,0,0,0,0,0,0,0,0,0,0,0,0,0,0,0,0,0,0,0,0,0,0,0,0,0,0,0,0,0,0,0,0,0,0,0,0,0,0,0,0,0,0,0,0,0,0,0,0,0,0,0,0,0,0,0,0,0,0,0,0,0,0,0,0,0,0,0,0,0,0,0,0,0,0,0,0,0,0,0,0,0,0,0,0,0,0,0,0,0,0,0,0,0,0,0,0,0,0,0,0,0,0,0,0,0,0,0,0,451,452,453,0,0,0,0,0,0,0,0,0,0,0,0,0,0,0,0,0,0,0,0,0,0,0,0,0,0,0,0,
0,0,0,0,0,0,0,0,0,0,0,0,0,0,0,0,0,0,0,0,0,0,0,0,0,0,0,0,0,0,0,0,0,0,0,0,0,0,0,0,0,0,0,0,0,0,0,0,0,0,0,0,0,0,0,0,0,0,0,0,0,0,0,0,0,0,0,0,0,0,0,0,0,0,0,0,0,0,0,0,0,0,0,0,0,0,0,0,0,0,0,0,0,0,0,0,0,0,0,0,0,0,0,0,0,10,0,0,0,0,0,0,0,0,0,0,0,0,0,454,455,456,0,0,0,0,0,0,0,0,0,0,0,0,0,0,0,0,0,0,0,0,0,0,0,0,0,0,0,0,
0,0,0,0,0,0,0,0,0,0,0,0,0,0,0,0,0,0,0,0,0,0,0,0,0,0,0,0,0,443,0,0,0,0,10,0,0,0,0,0,0,0,0,0,0,0,0,0,0,0,0,0,0,0,0,0,0,0,0,0,0,0,0,0,0,0,0,0,0,0,0,0,0,0,0,0,0,0,0,0,0,0,0,0,0,0,0,0,0,0,0,0,0,0,0,0,0,0,0,0,0,0,0,0,0,35,0,0,0,0,0,0,0,0,0,0,0,0,0,454,455,456,0,0,0,0,0,0,0,0,0,0,0,0,0,0,0,0,0,0,0,0,0,1044,1045,1046,1047,1048,0,0,
0,0,0,0,0,0,0,0,0,0,0,0,0,0,0,0,0,0,0,0,0,0,0,0,0,0,0,0,0,468,0,0,0,0,35,0,0,0,0,0,0,0,0,0,0,0,0,0,0,0,0,0,0,0,0,0,0,0,0,0,0,0,0,0,0,0,0,0,0,0,0,0,0,0,0,0,0,0,0,0,0,0,0,0,0,0,0,0,0,0,0,0,0,0,0,0,0,0,0,0,0,0,0,0,0,0,14,15,0,0,0,0,0,0,0,0,0,0,0,429,430,431,0,0,0,0,0,0,0,0,0,0,0,0,0,0,0,0,0,0,0,0,0,0,1070,1071,1072,1073,0,0,
0,0,0,0,0,0,0,0,0,0,0,0,0,0,0,0,0,0,0,0,0,0,0,0,0,0,0,0,0,397,0,0,397,0,0,109,110,0,0,0,0,0,0,0,0,0,0,0,0,0,0,0,0,0,0,0,0,0,0,0,0,0,0,0,0,0,0,0,0,0,0,0,0,0,0,0,0,0,0,0,0,0,0,0,0,0,0,0,0,0,0,0,0,0,0,0,0,0,0,0,0,0,0,0,0,0,39,40,0,0,0,0,0,0,0,0,0,0,0,429,430,431,0,0,0,0,0,0,0,0,0,0,0,0,0,0,0,0,0,0,0,0,1093,1094,1095,1096,1097,1098,0,0,
0,0,0,0,0,0,0,0,0,0,0,0,0,0,0,0,0,0,0,0,0,0,0,0,0,517,0,0,0,0,0,0,0,0,0,134,135,0,0,0,0,0,0,0,0,0,0,0,0,0,0,0,0,0,0,0,0,0,0,0,0,0,0,0,0,0,0,0,0,0,0,0,0,0,0,0,0,0,0,0,0,0,0,0,0,0,0,0,0,0,0,0,0,0,0,0,0,0,0,0,0,0,0,0,0,0,64,65,0,0,0,0,0,0,0,0,0,0,0,429,430,431,0,0,0,0,0,0,0,0,0,0,0,0,0,0,0,0,0,0,0,0,1118,1119,1120,1121,1122,1123,0,0,
0,0,0,0,0,467,0,0,0,0,0,0,0,392,393,0,443,0,0,0,0,0,0,0,0,542,0,0,0,0,0,0,0,0,0,0,0,0,0,0,0,0,0,0,0,0,0,0,181,182,183,184,185,0,0,0,0,0,0,0,0,0,0,0,0,0,0,0,0,0,392,393,0,443,0,0,0,0,0,0,0,0,0,0,0,394,395,396,0,0,0,0,0,0,0,0,0,0,0,0,0,0,0,0,0,0,89,90,0,0,0,0,0,0,0,0,0,0,0,429,430,431,0,0,0,0,0,0,0,0,0,0,0,0,0,0,0,394,395,396,0,0,1143,1144,1145,1146,1147,1148,0,0,
0,0,0,0,0,492,0,0,0,0,0,0,391,417,418,0,468,416,0,0,0,0,0,0,0,0,0,0,0,0,0,0,0,0,0,0,0,0,0,0,0,0,0,0,0,0,0,0,206,207,208,209,210,0,0,0,0,0,0,0,0,0,0,0,0,0,0,0,0,391,417,418,0,468,416,0,0,0,0,0,0,0,0,0,0,419,420,421,0,0,0,0,0,0,0,0,0,0,0,0,0,0,0,0,0,0,0,0,0,0,0,0,0,0,0,0,0,0,0,429,430,431,0,0,0,0,0,0,0,0,0,0,0,0,0,0,0,419,420,421,0,0,0,0,0,0,0,0,0,0,
0,0,0,0,0,0,0,0,0,0,0,0,0,0,0,0,0,0,0,0,0,0,0,0,0,0,0,336,311,313,313,386,0,0,0,0,0,0,0,0,0,0,0,0,0,0,0,0,0,0,0,0,0,0,0,0,0,0,0,0,0,0,0,0,0,0,0,0,0,0,0,0,0,0,0,0,0,0,0,0,0,0,0,0,0,0,0,0,0,0,0,0,0,0,0,0,0,0,0,0,0,0,0,0,0,0,0,0,0,0,0,0,0,0,426,427,428,0,0,429,430,431,0,0,0,0,0,0,0,426,427,428,0,0,0,0,0,0,0,0,0,0,0,0,0,0,0,0,0,0,
0,0,0,0,0,0,0,0,0,0,0,0,0,0,0,0,0,0,0,0,0,0,0,0,0,0,0,338,312,312,312,361,0,0,10,0,0,0,0,0,0,0,0,0,0,0,0,0,0,0,0,0,0,0,0,0,0,0,0,0,0,0,0,0,0,0,0,0,0,0,0,0,0,0,0,0,0,0,0,0,0,0,0,0,0,0,0,0,0,0,0,0,0,0,0,0,0,0,0,0,0,0,0,0,0,0,0,0,0,0,0,0,0,0,451,452,453,0,0,429,430,431,0,0,0,0,0,0,0,451,452,453,0,0,0,0,0,0,0,0,0,0,0,0,0,0,0,0,0,0,
0,0,0,0,0,0,0,0,0,0,0,0,0,0,0,0,0,0,0,0,0,0,0,0,0,0,0,338,311,313,311,386,0,0,35,0,0,0,0,0,0,0,0,0,0,0,0,0,0,0,0,0,0,0,0,0,0,0,0,0,0,0,0,0,0,0,0,0,0,0,0,0,0,0,0,0,0,0,0,0,0,0,0,0,0,0,0,0,0,0,0,0,0,0,0,0,0,0,0,0,0,0,0,0,0,0,0,0,0,0,0,0,0,0,454,455,456,0,0,454,455,456,0,0,0,0,0,0,0,454,455,456,0,0,0,0,0,0,0,0,0,0,0,0,0,0,0,0,0,0,
0,0,0,0,0,0,0,0,0,0,0,0,0,0,0,0,0,0,0,0,0,0,0,0,0,0,0,336,337,337,337,411,0,0,0,0,0,0,0,0,0,0,0,0,0,0,0,0,0,0,0,0,0,0,0,0,0,0,0,0,0,0,0,0,0,0,0,0,0,0,0,0,0,0,0,0,0,0,0,0,0,0,0,0,0,0,0,0,0,0,0,0,0,0,0,0,0,0,0,0,0,0,0,0,0,0,0,0,0,0,0,0,0,0,454,455,456,0,0,479,480,481,0,0,0,0,0,0,0,454,455,456,0,0,0,0,0,0,0,0,0,0,0,0,0,0,0,0,0,0
</data>
 </layer>
 <layer id="1" name="ground" width="150" height="20">
  <data encoding="csv">
0,0,0,0,0,0,0,0,0,0,0,0,0,0,0,0,0,0,0,0,0,0,0,0,0,0,0,0,0,0,0,0,0,0,0,61,62,0,0,0,0,0,0,0,0,0,0,0,0,0,0,0,0,0,0,0,0,0,0,0,0,0,0,0,0,0,0,0,0,0,0,0,0,0,0,0,0,0,0,0,0,0,0,0,0,0,0,0,0,0,0,0,0,0,0,0,0,0,0,0,0,0,0,0,0,0,11,12,0,0,0,0,0,0,0,0,0,0,0,0,0,0,0,0,0,0,0,0,0,0,0,0,0,0,0,0,0,0,0,0,0,0,0,0,0,0,0,0,0,0,
0,0,0,0,0,0,0,0,0,0,0,0,0,0,0,0,0,0,0,0,0,0,0,0,0,0,0,0,0,0,0,0,0,0,0,61,112,113,0,0,0,0,0,0,0,0,0,0,0,0,0,0,0,0,0,0,0,0,0,0,0,0,0,0,0,0,0,0,0,0,0,0,0,1,2,3,4,5,0,0,0,0,0,0,0,0,0,0,0,0,0,0,0,0,0,0,0,0,0,0,0,0,0,0,0,0,36,37,0,0,0,0,0,0,0,0,0,0,0,0,0,0,0,0,0,0,0,0,0,0,0,0,0,0,0,0,0,0,0,0,0,0,0,0,0,0,0,0,0,0,
0,0,0,0,0,0,0,0,0,0,0,0,0,0,0,0,0,0,0,0,0,0,0,0,0,0,0,0,0,0,0,0,0,0,0,61,137,138,0,0,0,0,0,0,0,0,0,0,0,0,0,0,0,0,0,0,0,0,0,0,0,0,0,0,0,0,0,0,0,0,0,0,0,26,27,28,29,30,0,0,0,0,0,0,1,2,3,4,5,0,0,0,0,0,0,0,0,0,0,0,0,0,0,0,0,0,111,112,0,0,0,0,0,0,0,0,0,0,0,0,0,0,0,0,0,0,0,0,0,0,0,0,0,0,0,0,0,0,0,0,0,0,0,0,0,0,0,0,0,0,
0,0,0,0,0,0,0,0,0,0,0,0,0,0,0,0,0,0,0,0,0,0,0,0,0,0,0,0,0,0,0,0,0,0,60,61,62,0,0,0,0,0,0,0,0,0,0,0,0,0,0,0,0,1,2,3,4,5,0,0,0,0,0,0,0,0,0,0,0,0,0,0,0,51,52,53,54,55,0,0,0,0,0,0,26,27,28,29,30,0,0,0,0,0,0,0,0,0,0,0,0,0,0,0,0,0,136,137,0,0,0,0,0,0,0,0,0,0,126,127,128,129,130,0,0,0,0,0,0,0,0,0,0,1,2,3,4,5,0,0,0,0,0,0,0,0,0,0,0,0,
0,0,0,0,0,0,0,0,0,0,0,0,0,0,0,0,0,0,0,0,0,0,0,0,0,0,0,0,0,0,0,0,0,0,85,86,87,0,0,0,0,0,0,0,0,0,0,0,0,0,0,0,0,26,27,28,29,30,0,0,0,0,0,0,0,0,0,0,0,0,0,0,0,76,77,78,79,80,0,0,0,0,0,0,51,52,53,54,55,0,0,0,0,0,126,127,128,129,130,0,0,0,0,0,0,0,161,2147483709,2147483708,263,264,265,0,0,0,0,0,0,151,152,153,154,155,0,0,0,0,0,0,0,0,0,0,26,27,28,29,30,0,0,0,0,0,0,0,0,0,0,0,0,
0,0,0,0,0,0,0,0,0,0,0,0,0,0,0,0,0,0,0,0,0,0,0,0,0,0,0,0,0,0,0,0,0,0,0,111,112,0,0,0,0,0,0,0,0,0,0,0,0,0,0,0,0,51,52,53,54,55,0,0,0,0,0,0,0,0,0,0,0,0,0,0,0,101,102,103,104,105,0,0,0,0,0,0,76,77,78,79,80,0,0,0,0,0,151,152,153,154,155,0,0,0,0,0,0,0,186,2147483734,2147483733,288,289,290,0,0,0,0,0,0,176,177,178,179,180,0,0,0,0,0,0,0,0,0,0,51,52,53,54,55,0,0,0,0,0,0,0,0,0,0,0,0,
0,0,0,0,0,0,0,0,0,0,0,0,0,0,0,0,0,0,0,0,0,0,0,0,0,0,0,0,0,0,0,0,0,0,0,0,0,0,0,0,0,1,2,3,4,5,0,0,0,0,0,0,0,76,77,78,79,80,0,0,0,0,0,0,0,0,126,127,128,129,130,0,0,0,0,0,0,0,0,0,0,0,0,0,101,102,103,104,105,0,0,0,0,0,176,177,178,179,180,0,0,0,0,0,0,0,211,212,0,0,0,0,0,0,0,0,0,0,201,202,203,204,205,0,0,0,0,0,0,0,0,0,0,76,77,78,79,80,0,0,0,0,0,0,0,0,0,0,0,0,
0,0,0,0,0,0,0,0,0,0,0,0,0,0,0,0,0,0,0,0,0,0,0,0,0,0,0,0,0,0,0,0,0,0,0,0,0,0,0,0,0,26,27,28,29,30,0,0,0,0,0,0,0,101,102,103,104,105,0,0,0,0,0,0,0,0,151,152,153,154,155,0,0,0,0,0,0,0,0,0,0,0,0,0,0,0,0,0,0,0,0,0,0,0,201,202,203,204,205,0,0,0,0,0,0,0,109,110,0,0,0,0,0,0,0,0,0,0,226,227,228,229,230,0,0,0,0,0,0,0,0,0,0,101,102,103,104,105,0,0,0,0,968,969,970,971,972,973,974,975,
0,0,0,0,0,0,0,0,0,0,0,0,0,0,0,0,0,0,0,0,0,0,0,0,0,0,0,0,0,0,0,0,0,0,60,61,62,0,0,0,0,51,52,53,54,55,0,0,0,0,0,0,0,0,0,0,0,0,0,0,0,0,0,0,0,0,176,177,178,179,180,0,0,0,0,0,0,0,1,2,3,4,5,0,0,0,0,0,0,0,0,0,0,0,226,227,228,229,230,0,0,0,0,0,0,0,134,135,0,0,0,0,0,0,0,0,0,0,0,0,0,0,0,0,0,0,0,0,0,0,0,0,0,0,0,0,0,0,0,0,0,0,993,994,995,996,997,998,999,1000,
0,0,0,0,0,0,0,0,0,0,0,0,0,0,0,0,0,0,0,0,0,0,0,0,0,0,0,0,0,0,0,0,0,0,85,86,87,0,0,0,0,76,77,78,79,80,0,0,0,0,0,0,0,0,0,0,0,0,0,0,0,0,0,0,0,0,201,202,203,204,205,0,0,0,0,0,0,0,26,27,28,29,30,0,0,0,0,0,0,0,0,0,0,0,0,0,0,0,0,0,0,0,0,0,0,0,11,12,0,0,0,0,0,0,0,0,0,0,0,0,0,0,0,0,0,0,0,0,0,0,0,0,0,0,0,0,0,0,0,0,0,0,1018,1019,1020,1021,1022,1023,1024,1025,
0,0,0,0,0,0,0,0,0,0,0,0,0,0,0,0,0,0,0,0,0,0,0,0,0,0,0,0,0,0,0,0,0,0,0,11,12,0,0,0,0,101,102,103,104,105,0,0,0,0,0,0,0,0,0,0,0,0,0,0,0,0,0,0,0,0,226,227,228,229,230,0,0,0,0,0,0,0,51,52,53,54,55,0,0,0,0,0,0,0,0,0,0,0,0,0,0,0,0,0,0,0,0,0,0,0,36,37,0,0,0,0,0,0,0,0,0,0,0,0,0,0,0,261,262,263,264,265,0,0,0,0,0,0,0,0,0,0,0,0,0,0,1043,0,0,0,0,0,1049,1050,
0,0,0,0,0,0,0,0,0,0,0,0,0,0,0,0,0,0,0,0,0,0,0,0,0,0,0,0,1,2,3,4,5,0,0,36,37,0,0,0,0,0,0,0,0,0,0,0,0,0,0,0,0,0,0,0,0,0,0,0,0,0,0,0,0,0,0,0,0,0,0,0,0,0,0,0,0,0,76,77,78,79,80,0,0,0,0,0,0,0,0,0,0,0,0,0,0,0,0,0,0,0,0,0,0,0,0,0,0,0,0,0,0,0,0,0,0,0,0,0,0,0,0,286,287,288,289,290,0,0,0,0,0,0,0,0,0,0,0,0,0,0,1068,1069,0,0,0,0,1074,1075,
0,0,0,0,0,0,0,0,0,0,0,0,0,0,0,0,0,0,0,0,0,0,0,0,0,0,0,0,26,27,28,29,30,0,0,0,0,0,0,0,0,0,0,0,0,0,0,0,0,0,0,0,0,0,0,0,0,0,0,0,0,0,0,0,0,0,0,0,0,0,0,0,0,0,0,0,0,0,101,102,103,104,105,0,0,0,0,0,0,0,0,0,0,0,0,0,0,0,0,0,0,0,0,0,0,0,0,0,0,0,0,0,0,1,2,3,4,5,0,0,0,0,0,0,0,0,0,0,1,2,3,4,5,0,0,0,0,0,0,0,0,0,1093,0,0,0,0,0,1099,1100,
0,0,0,0,0,0,0,0,0,0,0,0,0,0,0,0,0,0,0,0,0,0,0,0,0,0,0,0,51,52,53,54,55,0,0,0,0,0,0,0,0,0,0,0,0,0,0,0,0,0,0,0,0,0,0,0,0,0,0,7,4,4,5,0,0,0,0,0,0,0,0,0,0,0,0,0,0,0,0,0,0,0,0,0,0,0,0,0,0,0,0,0,0,0,0,131,131,132,208,132,208,133,0,0,0,0,0,0,0,0,0,0,0,26,27,28,29,30,0,0,0,0,0,0,0,0,0,0,26,27,28,29,30,0,0,0,0,0,0,0,0,0,1118,0,0,0,0,0,1124,1125,
0,0,0,0,0,0,0,0,0,0,0,0,0,0,0,0,0,0,0,0,0,0,7,4,4,5,0,0,76,77,78,79,80,0,0,111,112,113,263,264,265,0,0,0,0,0,0,0,0,182,183,184,0,0,0,0,0,7,31,32,29,27,30,0,0,0,0,0,0,0,0,0,0,0,0,0,0,0,0,0,0,0,0,0,0,0,0,0,0,0,0,0,0,0,0,156,157,233,233,157,157,158,0,0,0,0,0,0,126,4,5,0,0,51,52,53,54,55,0,0,0,0,0,0,0,0,0,0,51,52,53,54,55,0,0,0,0,0,0,0,0,126,0,0,0,0,0,0,1149,1150,
1,3,3,3,2,2,2,4,3,3,3,2,3,4,4,4,3,3,4,2,3,31,32,29,27,30,0,0,101,102,103,104,105,0,60,61,137,138,288,289,290,126,127,128,129,130,0,0,0,0,208,0,0,2,3,4,31,32,56,57,204,177,55,0,0,0,0,0,0,0,0,0,0,0,0,0,0,0,0,0,0,0,0,0,0,0,0,0,0,0,0,0,0,0,0,0,0,0,0,0,0,0,0,0,0,60,61,62,151,28,30,0,0,76,77,78,79,80,0,0,261,262,263,264,265,0,0,0,76,77,78,79,80,0,0,0,0,0,0,0,0,151,1168,1169,1170,1171,1172,1173,1174,1175,
26,29,29,28,28,27,29,27,29,29,29,29,29,27,28,28,29,28,29,27,56,29,57,54,78,55,0,0,0,0,0,0,0,0,85,86,162,0,0,0,0,151,152,153,154,154,154,154,231,232,233,234,235,27,28,29,27,57,54,54,179,178,80,0,0,0,26,29,29,28,28,27,29,27,29,29,29,29,29,27,28,28,29,28,29,27,56,29,29,29,29,30,0,0,0,0,0,0,0,0,0,0,0,0,0,85,86,87,176,54,55,0,0,101,102,103,104,105,0,0,286,287,288,289,290,0,0,0,101,102,103,104,105,0,0,26,29,29,28,28,27,107,1193,1194,1195,1196,1197,1198,1199,1200,
51,79,52,52,77,79,54,53,54,53,77,78,77,77,52,54,78,54,79,54,52,52,53,78,79,80,0,362,363,363,363,363,364,0,0,11,12,0,0,0,0,176,177,178,179,204,204,179,205,0,0,0,51,52,53,54,179,203,178,202,178,179,55,0,0,0,51,79,52,52,77,79,54,53,54,53,77,78,77,77,52,54,78,54,79,54,52,52,53,78,79,80,0,0,0,0,0,0,362,751,751,751,751,751,752,753,186,187,201,53,80,0,0,0,0,0,0,0,0,0,0,0,0,0,0,0,0,0,0,0,0,0,0,0,0,51,79,52,52,77,79,54,53,54,53,77,78,77,178,177,
76,53,54,79,53,77,78,54,53,79,53,78,77,79,53,77,79,79,53,52,79,54,79,52,53,80,0,387,388,388,388,388,389,0,0,36,37,0,0,0,0,201,202,203,204,179,179,179,205,0,0,0,51,77,78,79,204,179,179,204,179,203,80,0,0,0,76,53,54,79,53,77,78,54,53,79,53,78,77,79,53,77,79,79,53,52,79,54,79,52,53,80,0,261,262,263,264,265,784,776,776,776,776,776,777,778,211,212,176,79,80,0,0,0,0,0,0,0,0,0,0,0,0,0,0,0,0,0,0,0,0,0,0,0,0,76,53,54,79,53,203,178,178,177,203,203,177,202,177,178,
76,53,53,79,77,77,52,54,52,53,54,54,54,52,53,52,54,77,53,78,79,78,52,54,54,80,0,0,0,0,0,0,0,0,0,236,237,0,0,0,0,201,202,203,204,204,179,179,205,0,0,0,76,52,54,77,179,178,204,177,204,79,55,0,0,0,76,53,53,79,77,77,52,54,52,53,54,54,54,52,53,52,54,77,53,78,79,78,52,54,54,80,0,286,287,288,289,290,809,0,0,0,0,0,0,0,236,237,201,78,80,0,0,0,0,0,0,0,0,0,0,0,0,0,0,0,0,0,0,0,0,0,0,0,0,101,53,202,203,202,177,202,203,177,202,203,178,203,177,202
</data>
 </layer>
 <layer id="5" name="wood" width="150" height="20">
  <data encoding="csv">
0,0,0,0,0,0,0,0,0,0,0,0,0,0,0,0,0,0,0,0,0,0,0,0,0,0,0,0,0,0,0,0,0,0,0,0,0,0,0,0,0,0,0,0,0,0,0,0,0,0,0,0,0,0,0,0,0,0,0,0,0,0,0,0,0,0,0,0,0,0,0,0,0,0,0,0,0,0,0,0,0,0,0,0,0,0,0,0,0,0,0,0,0,0,0,0,0,0,0,0,0,0,0,0,0,0,0,0,0,0,0,0,0,0,0,0,0,0,0,0,0,0,0,0,0,0,0,0,0,0,0,0,0,0,0,0,0,0,0,0,0,0,0,0,0,0,0,0,0,0,
0,0,0,0,0,0,0,0,0,0,0,0,0,0,0,0,0,0,0,0,0,0,0,0,0,0,0,0,0,0,0,0,0,0,0,0,0,0,0,0,0,0,0,0,0,0,0,0,0,0,0,0,0,0,0,0,0,0,0,0,0,0,0,0,0,0,0,0,0,0,0,0,0,0,0,0,0,0,0,0,0,0,0,0,0,0,0,0,0,0,0,0,0,0,0,0,0,0,0,0,0,0,0,0,0,0,0,0,0,0,0,0,0,0,0,0,0,0,0,0,0,0,0,0,0,0,0,0,0,0,0,0,0,0,0,0,0,0,0,0,0,0,0,0,0,0,0,0,0,0,
0,0,0,0,0,0,0,0,0,0,0,0,0,0,0,0,0,0,0,0,0,0,0,0,0,0,0,0,0,0,0,0,0,0,0,0,0,0,0,0,0,0,0,0,0,0,0,0,0,0,0,0,0,0,0,0,0,0,0,0,0,0,0,0,0,0,0,0,0,0,0,0,0,0,0,0,0,0,0,0,0,0,0,0,0,0,0,0,0,0,0,0,0,0,0,0,0,0,0,0,0,0,0,0,0,0,0,0,0,0,0,0,0,0,0,0,0,0,0,0,0,0,0,0,0,0,0,0,0,0,0,0,0,0,0,0,0,0,0,0,0,0,0,0,0,0,0,0,0,0,
0,0,0,0,0,0,0,0,0,0,0,0,0,0,0,0,0,0,0,0,0,0,0,0,0,0,0,0,0,0,0,0,0,0,0,0,0,0,0,0,0,0,0,0,0,0,0,0,0,0,0,0,0,0,0,0,0,0,0,0,0,0,0,0,0,0,0,0,0,0,0,0,0,0,0,0,0,0,0,0,0,0,0,0,0,0,0,0,0,0,0,0,0,0,0,0,0,0,0,0,0,0,0,0,0,0,0,0,0,0,0,0,0,0,0,0,0,0,0,0,0,0,0,0,0,0,0,0,0,0,0,0,0,0,0,0,0,0,0,0,0,0,0,0,0,0,0,0,0,0,
0,0,0,0,0,0,0,0,0,0,0,0,0,0,0,0,0,0,0,0,0,0,0,0,0,0,0,0,0,0,0,0,0,0,0,0,0,0,0,0,0,0,0,0,0,0,0,0,0,0,0,0,0,0,0,0,0,0,0,0,0,0,0,0,0,0,0,0,0,0,0,0,0,0,0,0,0,0,0,0,0,0,0,0,0,0,0,0,0,0,0,0,0,0,0,0,0,0,0,0,0,0,0,0,0,0,0,0,0,0,0,0,0,0,0,0,0,0,0,0,0,0,0,0,0,0,0,0,0,0,0,0,0,0,0,0,0,0,0,0,0,0,0,0,0,0,0,0,0,0,
0,0,0,0,0,0,0,0,0,0,0,0,0,0,0,0,0,0,0,0,0,0,0,0,0,0,0,0,0,0,0,0,0,0,0,0,0,0,0,0,0,0,0,0,0,0,0,0,0,0,0,0,0,0,0,0,0,0,0,0,0,0,0,0,0,0,0,0,0,0,0,0,0,0,0,0,0,0,0,0,0,0,0,0,0,0,0,0,0,0,0,0,0,0,0,0,0,0,0,0,0,0,0,0,0,0,0,0,0,0,0,0,0,0,0,0,0,0,0,0,0,0,0,0,0,0,0,0,0,0,0,0,0,0,0,0,0,0,0,0,0,0,0,0,0,0,0,0,0,0,
0,0,0,0,0,0,0,0,0,0,0,0,0,0,0,0,0,0,0,0,0,0,0,0,0,0,0,0,0,0,0,0,0,0,0,0,0,0,0,0,0,0,0,0,0,0,0,0,0,0,0,0,0,0,0,0,0,0,0,0,0,0,0,0,0,0,0,0,0,0,0,0,0,0,0,0,0,0,0,0,0,0,0,0,0,0,0,0,0,0,0,0,0,0,0,0,0,0,0,0,0,0,0,0,0,0,0,0,0,0,0,0,0,0,0,0,0,0,0,0,0,0,0,0,0,0,0,0,0,0,0,0,0,0,0,0,0,0,0,0,0,0,0,0,0,0,0,0,0,0,
0,0,0,0,0,0,0,0,0,0,0,0,0,0,0,0,0,0,0,0,0,0,0,0,0,0,0,0,0,0,0,0,0,0,0,0,0,0,0,0,0,0,0,0,0,0,0,0,0,0,0,0,0,0,0,0,0,0,0,0,0,0,0,0,0,0,0,0,0,0,0,0,0,0,0,0,0,0,0,0,0,0,0,0,0,0,0,0,0,0,0,0,0,0,0,0,0,0,0,0,0,0,0,0,0,0,0,0,0,0,0,0,0,0,0,0,0,0,0,0,0,0,0,0,0,0,0,0,0,0,0,0,0,0,0,0,0,0,0,0,0,0,0,0,0,0,0,0,0,0,
0,0,0,0,0,0,0,0,0,0,0,0,0,0,0,0,0,0,0,0,0,0,0,0,0,0,0,0,0,0,0,0,0,0,0,0,0,0,0,0,0,0,0,0,0,0,0,0,0,0,0,0,0,0,0,0,0,0,0,0,0,0,0,0,0,0,0,0,0,0,0,0,0,0,0,0,0,0,0,0,0,0,0,0,0,0,0,0,0,0,0,0,0,0,0,0,0,0,0,0,0,0,0,0,0,0,0,0,0,0,0,0,0,0,0,0,0,0,0,0,0,0,0,0,0,0,0,0,0,0,0,0,0,0,0,0,0,0,0,0,0,0,0,0,0,0,0,0,0,0,
0,0,0,0,0,0,0,0,0,0,0,0,0,0,0,0,0,0,0,0,0,0,0,0,0,0,0,0,0,0,0,0,0,0,0,0,0,0,0,0,0,0,0,0,0,0,0,0,0,0,0,0,0,0,0,0,0,0,0,0,0,0,0,0,0,0,0,0,0,0,0,0,0,0,0,0,0,0,0,0,0,0,0,0,0,0,0,0,0,0,0,0,0,0,0,0,0,0,0,0,0,0,0,0,0,0,0,0,0,0,0,0,0,0,0,0,0,0,0,0,0,0,0,0,0,0,0,0,0,0,0,0,0,0,0,0,0,0,0,0,0,0,0,0,0,0,0,0,0,0,
0,0,0,0,0,0,0,0,0,0,0,0,0,0,0,0,0,0,0,0,0,0,0,0,0,0,0,0,0,0,0,0,0,0,0,0,0,0,0,0,0,0,0,0,0,0,0,0,0,0,0,0,0,0,0,0,0,0,0,0,0,0,0,0,0,0,0,0,0,0,0,0,0,0,0,0,0,0,0,0,0,0,0,0,0,0,0,0,0,0,0,0,0,0,0,0,0,0,0,0,0,0,0,0,0,0,0,0,0,0,0,0,0,0,0,0,0,0,0,0,0,0,0,0,0,0,0,0,0,0,0,0,0,0,0,0,0,0,0,0,0,0,0,0,0,0,0,0,0,0,
0,0,0,0,0,0,0,0,0,0,0,0,0,0,0,0,0,0,0,0,0,0,0,0,0,0,0,0,0,0,0,0,0,0,0,0,0,0,0,0,0,0,0,0,0,0,0,0,0,0,0,0,0,0,0,0,0,0,0,0,0,0,0,0,0,0,0,0,0,0,0,0,0,0,0,0,0,0,0,0,0,0,0,0,0,0,0,0,0,0,0,0,0,0,0,0,0,0,0,0,0,0,0,0,0,0,0,0,0,0,0,0,0,0,0,0,0,0,0,0,0,0,0,0,0,0,0,0,0,0,0,0,0,0,0,0,0,0,0,0,0,0,0,0,0,0,0,0,0,0,
0,0,0,0,0,0,0,0,0,0,0,0,0,0,0,0,0,0,0,0,0,0,0,0,0,0,0,0,0,0,0,0,0,0,0,0,0,0,0,0,0,0,0,0,0,0,0,0,0,0,0,0,0,0,0,0,0,0,0,0,0,0,0,0,0,0,0,0,0,0,0,0,0,0,0,0,0,0,0,0,0,0,0,0,0,0,0,0,0,0,0,0,0,0,0,0,0,0,0,0,0,0,0,0,0,0,0,0,0,0,0,0,0,0,0,0,0,0,0,0,0,0,0,0,0,0,0,0,0,0,0,0,0,0,0,0,0,0,0,0,0,0,0,0,0,0,0,0,0,0,
0,0,0,0,0,0,0,0,0,0,0,0,0,0,0,0,0,0,0,0,0,0,0,0,0,0,0,0,0,0,0,0,0,0,0,0,0,0,0,0,0,0,0,0,0,0,0,0,0,0,0,0,0,0,0,0,0,0,0,0,0,0,0,0,0,0,0,0,0,0,0,0,0,0,0,0,0,0,0,0,0,0,0,0,0,0,0,0,0,0,0,0,0,0,0,0,0,0,0,0,0,0,0,0,0,0,0,0,0,0,0,0,0,0,0,0,0,0,0,0,0,0,0,0,0,0,0,0,0,0,0,0,0,0,0,0,0,0,0,0,0,0,0,0,0,0,0,0,0,0,
0,0,0,0,0,0,0,0,0,0,0,0,0,0,0,0,0,0,0,0,0,0,0,0,0,0,0,0,0,0,0,0,0,0,0,0,0,0,0,0,0,0,0,0,0,0,0,0,0,0,0,0,0,0,0,0,0,0,0,0,0,0,0,0,0,0,0,0,0,0,0,0,0,0,0,0,0,0,0,0,0,0,0,0,0,0,0,0,0,0,0,0,0,0,0,0,828,829,834,0,0,915,0,0,0,0,0,0,0,0,0,0,0,0,0,0,0,0,0,0,0,0,0,0,0,0,0,0,0,0,0,0,0,0,0,0,0,0,0,0,0,0,0,0,0,0,0,0,0,0,
0,0,0,0,0,0,0,0,0,0,0,0,0,0,0,0,0,0,0,0,0,0,0,0,0,0,0,0,0,0,0,0,0,0,0,0,0,0,0,0,0,0,0,0,0,0,0,0,0,0,0,0,0,0,0,0,0,0,0,0,0,0,0,0,0,0,0,0,0,0,0,0,0,0,0,0,0,0,0,0,0,0,0,0,0,0,0,0,0,0,0,0,0,0,0,0,853,854,809,0,0,939,0,0,0,0,0,0,0,0,0,0,0,0,0,0,0,0,0,0,0,0,0,0,0,0,0,0,0,0,0,0,0,0,0,0,0,0,0,0,0,0,0,0,0,0,0,0,0,0,
0,0,0,0,0,0,0,0,0,0,0,0,0,0,0,0,0,0,0,0,0,0,0,0,0,0,0,0,0,0,0,0,0,0,0,0,0,0,0,0,0,0,0,0,0,0,0,0,0,0,0,0,0,0,0,0,0,0,0,0,0,0,0,0,0,0,0,0,0,0,0,0,0,0,0,0,0,0,0,0,0,0,0,0,0,0,0,0,0,0,0,0,0,0,0,0,0,0,834,0,0,939,0,0,0,0,0,0,0,0,0,0,0,0,0,0,0,0,0,0,0,0,0,0,0,0,0,0,0,0,0,0,0,0,0,0,0,0,0,0,0,0,0,0,0,0,0,0,0,0,
0,0,0,0,0,0,0,0,0,0,0,0,0,0,0,0,0,0,0,0,0,0,0,0,0,0,0,0,0,0,0,0,0,0,0,0,0,0,0,0,0,0,0,0,0,0,0,0,0,0,0,0,0,0,0,0,0,0,0,0,0,0,0,0,0,0,0,0,0,0,0,0,0,0,0,0,0,0,0,0,0,0,0,0,0,0,0,0,0,0,0,0,0,0,0,0,0,0,859,936,937,937,937,937,937,938,0,0,0,0,0,0,0,0,0,0,0,0,0,0,0,0,0,0,0,0,0,0,0,0,0,0,0,0,0,0,0,0,0,0,0,0,0,0,0,0,0,0,0,0,
0,0,0,0,0,0,0,0,0,0,0,0,0,0,0,0,0,0,0,0,0,0,0,0,0,0,0,0,0,0,0,0,0,0,0,0,0,0,0,0,0,0,0,0,0,0,0,0,0,0,0,0,0,0,0,0,0,0,0,0,0,0,0,0,0,0,0,0,0,0,0,0,0,0,0,0,0,0,0,0,0,0,0,0,0,0,0,0,0,0,0,0,0,0,0,0,0,0,0,826,827,0,0,0,0,0,0,0,0,0,0,0,0,0,0,0,0,0,0,0,0,0,0,0,0,0,0,0,0,0,0,0,0,0,0,0,0,0,0,0,0,0,0,0,0,0,0,0,0,0,
0,0,0,0,0,0,0,0,0,0,0,0,0,0,0,0,0,0,0,0,0,0,0,0,0,0,0,0,0,0,0,0,0,0,0,0,0,0,0,0,0,0,0,0,0,0,0,0,0,0,0,0,0,0,0,0,0,0,0,0,0,0,0,0,0,0,0,0,0,0,0,0,0,0,0,0,0,0,0,0,0,0,0,0,0,0,0,0,0,0,0,0,0,0,0,0,0,0,0,851,852,0,0,0,2147484500,0,0,0,0,0,0,0,0,0,0,0,0,0,0,0,0,0,0,0,0,0,0,0,0,0,0,0,0,0,0,0,0,0,0,0,0,0,0,0,0,0,0,0,0,0
</data>
 </layer>
 <objectgroup id="17" name="player">
  <object id="4" name="player" x="12.6667" y="221" width="37.6667" height="31.6667"/>
 </objectgroup>
 <objectgroup id="19" name="exit">
  <object id="11" name="exit" x="2324.67" y="206" width="21.6667" height="23.6667"/>
 </objectgroup>
 <objectgroup id="20" name="enemy">
  <object id="14" name="enemy" x="1913.67" y="42" width="23.6667" height="21"/>
  <object id="15" name="enemy" x="2079.83" y="185.833" width="23.6667" height="21"/>
  <object id="16" name="enemy" x="2160.17" y="47.8333" width="23.6667" height="21"/>
  <object id="18" name="enemy" x="475.833" y="161.833" width="23.6667" height="21"/>
  <object id="19" name="enemy" x="684.833" y="90.8333" width="23.6667" height="21"/>
  <object id="20" name="enemy" x="878.167" y="42.1667" width="23.6667" height="21"/>
  <object id="21" name="enemy" x="1082.5" y="90.5" width="23.6667" height="21"/>
  <object id="24" name="enemy" x="1197.83" y="11.5" width="23.6667" height="21"/>
  <object id="25" name="enemy" x="1279.17" y="123.167" width="23.6667" height="21"/>
  <object id="26" name="enemy" x="1375.83" y="22.1667" width="23.6667" height="21"/>
  <object id="27" name="enemy" x="1534.83" y="55.1667" width="23.6667" height="21"/>
 </objectgroup>
</map>
