<?xml version="1.0" encoding="UTF-8"?>
<map version="1.10" tiledversion="1.12.2" orientation="orthogonal" renderorder="right-down" width="20" height="20" tilewidth="16" tileheight="16" infinite="0" nextlayerid="5" nextobjectid="4">
 <tileset firstgid="1" name="dungeon_tileset" tilewidth="16" tileheight="16" tilecount="16" columns="4">
  <image source="../images/dungeon_tilesheet.png" width="64" height="64"/>
 </tileset>
 <layer id="1" name="Ground" width="20" height="20">
  <data encoding="csv">
1,1,1,1,1,1,1,1,1,1,1,1,1,1,1,1,1,1,1,1,
1,1,1,1,1,1,1,1,1,1,1,1,1,1,1,1,1,1,1,1,
1,1,1,1,1,1,1,1,1,1,1,1,1,1,1,1,1,1,1,1,
1,1,1,1,1,1,1,1,1,1,1,1,1,1,1,1,1,1,1,1,
1,1,1,1,1,1,1,1,1,1,1,1,1,1,1,1,1,1,1,1,
1,1,1,1,1,1,1,1,1,1,1,1,1,1,1,1,1,1,1,1,
1,1,1,1,1,1,1,1,1,1,1,1,1,1,1,1,1,1,1,1,
1,1,1,1,1,1,1,1,1,1,1,1,1,1,1,1,1,1,1,1,
1,1,1,1,1,1,1,1,1,1,1,1,1,1,1,1,1,1,1,1,
1,1,1,1,1,1,1,1,1,1,1,1,1,1,1,1,1,1,1,1,
1,1,1,1,1,1,1,1,1,1,1,1,1,1,1,1,1,1,1,1,
1,1,1,1,1,1,1,1,1,1,1,1,1,1,1,1,1,1,1,1,
1,1,1,1,1,1,1,1,1,1,1,1,1,1,1,1,1,1,1,1,
1,1,1,1,1,1,1,1,1,1,1,1,1,1,1,1,1,1,1,1,
1,1,1,1,1,1,1,1,1,1,1,1,1,1,1,1,1,1,1,1,
1,1,1,1,1,1,1,1,1,1,1,1,1,1,1,1,1,1,1,1,
1,1,1,1,1,1,1,1,1,1,1,1,1,1,1,1,1,1,1,1,
1,1,1,1,1,1,1,1,1,1,1,1,1,1,1,1,1,1,1,1,
1,1,1,1,1,1,1,1,1,1,1,1,1,1,1,1,1,1,1,1,
1,1,1,1,1,1,1,1,1,1,1,1,1,1,1,1,1,1,1,1
</data>
 </layer>
 <layer id="2" name="Walls" width="20" height="20">
  <data encoding="csv">
2,2,2,2,2,2,2,2,2,2,2,2,2,2,2,2,2,2,2,2,
2,0,0,0,2,0,0,0,0,0,0,0,0,0,0,0,0,0,0,2,
2,0,0,0,2,0,0,0,0,0,0,0,0,0,0,0,0,0,0,2,
2,0,0,0,2,0,0,0,0,0,0,0,0,0,0,0,0,0,0,2,
2,2,0,2,2,2,2,2,2,2,2,2,2,2,0,2,2,2,2,2,
2,0,0,0,0,0,0,0,0,2,0,0,0,2,0,2,0,0,0,2,
2,0,0,0,0,0,0,0,0,2,0,0,0,2,0,2,0,0,0,2,
2,0,0,0,0,0,0,0,0,0,0,0,0,2,0,2,0,0,0,2,
2,2,2,2,2,2,2,2,0,2,2,2,2,2,0,2,0,0,0,2,
2,0,0,0,0,0,0,2,0,2,0,0,0,0,0,2,0,0,0,2,
2,0,0,0,0,0,0,0,0,0,0,0,0,0,0,2,2,2,0,2,
2,0,0,0,0,0,0,2,0,2,0,0,0,0,0,2,0,0,0,2,
2,2,2,2,2,0,2,2,0,2,2,2,2,2,2,2,0,0,0,2,
2,0,0,0,2,0,2,0,0,0,0,0,0,0,0,0,0,0,0,2,
2,0,0,0,0,0,2,0,0,0,0,0,0,0,0,0,0,0,0,2,
2,0,0,0,2,0,2,0,0,0,0,0,0,0,0,0,0,0,0,2,
2,2,0,2,2,0,2,2,2,2,2,2,2,0,2,2,2,2,2,2,
2,0,0,0,2,0,0,0,0,2,0,0,0,0,0,0,0,0,0,2,
2,0,0,0,3,0,0,0,0,2,0,0,0,0,0,0,0,0,0,2,
2,2,2,2,2,2,2,2,2,2,2,2,2,2,2,2,2,2,2,2
</data>
 </layer>
 <layer id="3" name="SecretWalls" width="20" height="20">
  <data encoding="csv">
0,0,0,0,0,0,0,0,0,0,0,0,0,0,0,0,0,0,0,0,
0,0,0,0,0,0,0,0,0,0,0,0,0,0,0,0,0,0,0,0,
0,0,0,0,0,0,0,0,0,0,0,0,0,0,0,0,0,0,0,0,
0,0,0,0,0,0,0,0,0,0,0,0,0,0,0,0,0,0,0,0,
0,0,0,0,0,0,0,0,0,0,0,0,0,0,2,0,0,0,0,0,
0,0,0,0,0,0,0,0,0,0,0,0,0,0,0,0,0,0,0,0,
0,0,0,0,0,0,0,0,0,0,0,0,0,0,0,0,0,0,0,0,
0,0,0,0,0,0,0,0,0,0,0,0,0,0,0,0,0,0,0,0,
0,0,0,0,0,0,0,0,0,0,0,0,0,0,0,0,0,0,0,0,
0,0,0,0,0,0,0,0,0,0,0,0,0,0,0,0,0,0,0,0,
0,0,0,0,0,0,0,0,0,0,0,0,0,0,0,0,0,0,0,0,
0,0,0,0,0,0,0,0,0,0,0,0,0,0,0,0,0,0,0,0,
0,0,0,0,0,0,0,0,0,0,0,0,0,0,0,0,0,0,0,0,
0,0,0,0,0,0,0,0,0,0,0,0,0,0,0,0,0,0,0,0,
0,0,0,0,0,0,0,0,0,0,0,0,0,0,0,0,0,0,0,0,
0,0,0,0,0,0,0,0,0,0,0,0,0,0,0,0,0,0,0,0,
0,0,2,0,0,0,0,0,0,0,0,0,0,0,0,0,0,0,0,0,
0,0,0,0,0,0,0,0,0,0,0,0,0,0,0,0,0,0,0,0,
0,0,0,0,0,0,0,0,0,0,0,0,0,0,0,0,0,0,0,0,
0,0,0,0,0,0,0,0,0,0,0,0,0,0,0,0,0,0,0,0
</data>
 </layer>
 <objectgroup id="4" name="Objects">
  <object id="1" name="PlayerSpawn" x="24" y="24"/>
  <object id="2" name="SewageDrain" x="256.086" y="32.841" width="16" height="16"/>
  <object id="3" name="Portal" x="272" y="272" width="16" height="16"/>
 </objectgroup>
</map>
